!!!!SEGMENT: pl-wtm--r-552-m_moniuszko-stanislaw--paria-uwertura.krn
!!!cenid: 18xx:3041
!!!COM: Moniuszko, Stanisław
!!!COM-rismid: pe30008351
!!!CDT: 1819/05/05-1872/06/04
!!!CNT: Polish
!!!GTL: Paria
!!!OTL: Uwertura
!!!PDT:
!!!AGN: Secular
!!!SMS-siglum: PL-Wtm
!!!SMS-shelfmark: R 552/M
!!!SMS-shelfwork: G
!!!SMS-variant:
!!!SMS-altvar:
!!!NIFC-rismid: 1001091074
!!!URL-scan: http://repozytorium.nifc.pl/skany/pl-wtm-nut--r552-553-554-555-557-559m
!!!ONB-nifc: UWAGA: skany 0006-0012
!!!OMD: Maestoso
!!!key:
**kern	**dynam	**kern	**dynam	**kern	**dynam	**kern	**dynam	**kern	**dynam
*group1	*	*group1	*	*group1	*	*group1	*	*group1	*
*part5	*part5	*part4	*part4	*part3	*part3	*part2	*part2	*part1	*part1
*staff5	*	*staff4	*	*staff3	*	*staff2	*	*staff1	*
*Iempty	*	*Iempty	*	*Iempty	*	*Icor	*	*Icor	*
*I"Tromboni e Ophi.	*	*I"Tromboni e Ophi.	*	*I"Pistoni in C	*	*I"Corni. in F.	*	*I"Corni. in F.	*
*clefF4	*	*clefC4	*	*clefG2	*	*clefG2	*	*clefG2	*
*	*	*	*	*	*	*ITrd4c7	*	*ITrd4c7	*
*k[]	*	*k[]	*	*k[]	*	*k[b-]	*	*k[b-]	*
*a:	*	*a:	*	*a:	*	*a:	*	*a:	*
*M4/4	*	*M4/4	*	*M4/4	*	*M4/4	*	*M4/4	*
*met(c)	*	*met(c)	*	*met(c)	*	*met(c)	*	*met(c)	*
=1	=1	=1	=1	=1	=1	=1	=1	=1	=1
*all\right	*	*all\right	*	*all\right	*	*all\right	*	*all\right	*
!LO:TX:t=P:problem:all\right:global	!	!LO:TX:t=P:problem:all\right:global	!	!LO:TX:t=P:problem:all\right:global	!	!LO:TX:t=P:problem:all\right:global	!	!LO:TX:t=P:problem:all\right:global	!
*^	*	*	*	*^	*	*^	*	*	*
*	*2\right	*	*2\right	*	*	*2\right	*	*	*2\right	*	*	*
!	!	!	!	!	!	!	!	!	!	!	!LO:TX:t=P:problem:all\right:global	!
!LO:TX:t=P:problem:instrument - ofiklejda	!	!	!	!	!	!	!	!	!	!	!	!
!LO:TX:a:t=Maestoso:color=blue	!	!LO:DY:rj	!	!LO:DY:rj	!	!	!LO:DY:rj	!LO:DY:rj	!	!LO:DY:rj	!LO:TX:a:t=Uwertura:color=blue:note=podkreślone na niebiesko	!LO:DY::rj
2A^</	2AA\	ff	2c^>\ 2e	ff	2a^>/	2a\	ff	2c^>/	2A\	ff	2E^</ 2e	ff
4A^</	4AA\	.	4c^>\ 4e	.	4a^>/	4a\	.	4c^>/	4A\	.	4E^</ 4e	.
4E^</	4EE\	.	4B^>\ 4e	.	4e^</ 4b	4ryy	.	4E^>/ 4BX	4ryy	.	4E^</ 4e	.
*	*	*	*	*	*v	*v	*	*	*	*	*	*
*	*	*	*	*	*	*	*v	*v	*	*	*
=2	=2	=2	=2	=2	=2	=2	=2	=2	=2	=2
4..A^</	4.AA\	.	4..c^>\ 4..e	.	4..a^</ 4..cc	.	4..A^</ 4..c	.	4..E^</ 4..e	.
.	8r	.	.	.	.	.	.	.	.	.
16E/	.	.	16c\ 16e	.	16a/ 16cc	.	16A/ 16c	.	16A/ 16e	.
4A^</	4AA\	.	4.c\ 4.e	.	4.a/ 4.cc	.	4.A/ 4.c	.	4.A/ 4.e	.
4G^</	4GG\	.	.	.	.	.	.	.	.	.
!	!	!	!	!	!	!	!	!	!LO:TX:B:a:t=52 b):color=blue	!
.	.	.	8r	.	8r	.	8r	.	8r	.
=3	=3	=3	=3	=3	=3	=3	=3	=3	=3	=3
2F^</	2FF\	.	2A^>\ 2f	.	2a^</ 2cc	.	2F^</ 2c	.	2A^</ 2f	.
4..D^</	2DD\	.	4..A^>\ 4..f	.	4..a^>\ 4..ff	.	4..F^</ 4..d	.	4..A^</ 4..f	.
16D/	.	.	16A\ 16f	.	16a\ 16ff	.	16A/ 16d	.	16A/ 16f	.
=4	=4	=4	=4	=4	=4	=4	=4	=4	=4	=4
4.A^</	4.AA\	.	4.c^>\ 4.e	.	4.a^>\ 4.ee	.	4.A^</ 4.c	.	4.A^</ 4.e	.
8r	8ryy	.	8r	.	8r	.	8r	.	8r	.
2r	2ryy	.	2r	.	2r	.	2r	.	2r	.
*v	*v	*	*	*	*	*	*	*	*	*
=5||	=5||	=5||	=5||	=5||	=5||	=5||	=5||	=5||	=5||
*M4/4	*	*M4/4	*	*M4/4	*	*M4/4	*	*M4/4	*
*met(c)	*	*met(c)	*	*met(c)	*	*met(c)	*	*met(c)	*
!LO:TX:a:t=molto agitato:color=blue	!	!	!	!	!	!	!	!LO:TX:a:t=molto agitato	!
1r	.	1r	.	1r	.	1r	.	1r	.
=6	=6	=6	=6	=6	=6	=6	=6	=6	=6
1r	.	1r	.	1r	.	1r	.	1r	.
=7	=7	=7	=7	=7	=7	=7	=7	=7	=7
1r	.	1r	.	1r	.	1r	.	1r	.
=8	=8	=8	=8	=8	=8	=8	=8	=8	=8
1r	.	1r	.	1r	.	1r	.	1r	.
=9	=9	=9	=9	=9	=9	=9	=9	=9	=9
1r	.	1r	.	1r	.	1r	.	1r	.
!!linebreak:original
!!LO:LB:g=original
=10	=10	=10	=10	=10	=10	=10	=10	=10	=10
*	*	*	*	*	*	*	*	*^	*
!LO:TX:a:t=a:rj:color=red	!	!	!	!	!	!	!	!LO:TX:b:t=a=:color=red:rj	!	!
1r	.	1r@	.	1r@	.	1r	.	4r	1rG	p
.	.	.	.	.	.	.	.	[<4E^</	.	.
.	.	.	.	.	.	.	.	8E/]	.	.
.	.	.	.	.	.	.	.	8r	.	.
.	.	.	.	.	.	.	.	4r	.	.
=11	=11	=11	=11	=11	=11	=11	=11	=11	=11	=11
1r	.	1ryy	.	1ryy	.	1r	.	4r	1rc	p
.	.	.	.	.	.	.	.	[<4e^</	.	.
.	.	.	.	.	.	.	.	8e/]	.	.
.	.	.	.	.	.	.	.	8r	.	.
.	.	.	.	.	.	.	.	4r	.	.
=12	=12	=12	=12	=12	=12	=12	=12	=12	=12	=12
1r	.	1ryy	.	1ryy	.	1r	.	4r	1rA	.
.	.	.	.	.	.	.	.	[<4G^</	.	.
.	.	.	.	.	.	.	.	8G/]	.	.
.	.	.	.	.	.	.	.	8r	.	.
.	.	.	.	.	.	.	.	4r	.	.
=13	=13	=13	=13	=13	=13	=13	=13	=13	=13	=13
1r	.	1r	.	1ryy	.	1r	.	4r	1re	.
.	.	.	.	.	.	.	.	[<4g^</	.	.
.	.	.	.	.	.	.	.	8g/]	.	.
.	.	.	.	.	.	.	.	8r	.	.
.	.	.	.	.	.	.	.	4r	.	.
*	*	*	*	*	*	*	*	*v	*v	*
=14	=14	=14	=14	=14	=14	=14	=14	=14	=14
1r	.	1r	.	1r	.	1r	.	1r	.
=15	=15	=15	=15	=15	=15	=15	=15	=15	=15
1r	.	1r	.	1r	.	1r	.	1r	.
!!linebreak:original
!!LO:LB:g=original
=16	=16	=16	=16	=16	=16	=16	=16	=16	=16
*	*	*	*	*	*	*	*	*^	*
!	!	!	!	!	!	!	!	!	!LO:TX:t=P:problem:decrescendopomiędzy nutami na pięciolinii	!LO:DY:rj
1r@	.	1r@	.	1r@	.	1r@	.	[>2a/	[<2A\	sf >
.	.	.	.	.	.	.	.	8a/]	8A\]	]
.	.	.	.	.	.	.	.	8r	8r	.
.	.	.	.	.	.	.	.	4r	4r	.
*	*	*	*	*	*	*	*	*v	*v	*
=17	=17	=17	=17	=17	=17	=17	=17	=17	=17
1ryy	.	1ryy	.	1ryy	.	1ryy	.	1r	.
=18	=18	=18	=18	=18	=18	=18	=18	=18	=18
*	*	*	*	*	*	*	*	*^	*
!	!	!	!	!	!	!	!	!	!	!LO:DY:rj
1ryy	.	1ryy	.	1ryy	.	1ryy	.	[>2a/	[<2A\	sf >
.	.	.	.	.	.	.	.	8a/]	8A\]	]
.	.	.	.	.	.	.	.	8r	8r	.
.	.	.	.	.	.	.	.	4r	4r	.
*	*	*	*	*	*	*	*	*v	*v	*
=19	=19	=19	=19	=19	=19	=19	=19	=19	=19
1r	.	1r	.	1r	.	1r	.	1r	.
=20	=20	=20	=20	=20	=20	=20	=20	=20	=20
1r	.	1r	.	1r	.	1r	.	1r	.
=21	=21	=21	=21	=21	=21	=21	=21	=21	=21
1r	.	1r	.	1r	.	1r	.	1r	.
=22	=22	=22	=22	=22	=22	=22	=22	=22	=22
*	*	*	*	*^	*	*	*	*	*
!	!	!	!	!	!	!LO:DY:rj	!	!	!	!
1r	.	1r	.	8.a/L	1r	mf	4.d\ 4.f	sf >	4.A/ 4.a	sf >
.	.	.	.	16a/Jk	.	.	.	.	.	.
.	.	.	.	8a/	.	.	.	.	.	.
.	.	.	.	8r	.	.	8r	]	8r	]
.	.	.	.	2r	.	.	2r	.	2r	.
=23	=23	=23	=23	=23	=23	=23	=23	=23	=23	=23
1r	.	1r	.	8.a/L	1r	.	4.c/ 4.e	sf >	4.A/ 4.a	sf >
.	.	.	.	16a/Jk	.	.	.	.	.	.
.	.	.	.	8a/	.	.	.	.	.	.
.	.	.	.	8r	.	.	8r	]	8r	]
.	.	.	.	2r	.	.	2r	.	2r	.
*	*	*	*	*v	*v	*	*	*	*	*
!!LO:PB:g=original
=24	=24	=24	=24	=24	=24	=24	=24	=24	=24
!LO:TX:a::B:t=4	!	!LO:TX:B:a:t=4	!	!LO:TX:B:a:t=4	!	!LO:TX:a:B:t=4	!	!LO:TX:b:B:t=4	!
1r	.	1r	.	1r	.	1r	.	1r	.
=25	=25	=25	=25	=25	=25	=25	=25	=25	=25
1r	.	1r	.	1r	.	1r	.	1r	.
=26	=26	=26	=26	=26	=26	=26	=26	=26	=26
1r	.	1r	.	1r	.	1r	.	1r	.
=27	=27	=27	=27	=27	=27	=27	=27	=27	=27
1r	.	1r	.	1r	.	1r	.	1r	.
=28	=28	=28	=28	=28	=28	=28	=28	=28	=28
1r	.	1r	.	1r	.	1r	.	1r	.
=29	=29	=29	=29	=29	=29	=29	=29	=29	=29
*	*	*	*	*	*	*^	*	*^	*
*	*	*	*	*	*	*	*	*	*	*2\right	*
!	!	!	!	!	!	!	!	!	!	!	!LO:DY:rj
1r	.	1r	.	1r	.	1r	4r	p	(>2a^</	2A\	mf
.	.	.	.	.	.	.	2E\^>	.	.	.	.
.	.	.	.	.	.	.	.	.	8e/)	8e\	.
.	.	.	.	.	.	.	.	.	8r	8ryy	.
!	!	!	!	!	!	!	!	!LO:HP:i:t=crescendo	!	!	!
.	.	.	.	.	.	.	[<4E\^>	>	4r	4ryy	.
=30	=30	=30	=30	=30	=30	=30	=30	=30	=30	=30	=30
1r	.	1r	.	1r	.	4r	4E\]	.	2r	2ryy	.
.	.	.	.	.	.	2e^>/	2E\	.	.	.	.
.	.	.	.	.	.	.	.	.	4r	4ryy	.
.	.	.	.	.	.	[>4e^</	[<4E\	.	8.r	8.ryy	.
.	.	.	.	.	.	.	.	.	16e/	16e\	.
*	*	*	*	*	*	*v	*v	*	*	*	*
=31	=31	=31	=31	=31	=31	=31	=31	=31	=31	=31
1r	.	1r	.	1r	.	4E/] 4e]	.	4e^^>/	4e\	.
.	.	.	.	.	.	4E^^>/ 4e	.	4e^^>/	4e\	.
.	.	.	.	.	.	4E^^>/ 4e	.	4f#X^^>/	4e\	.
.	.	.	.	.	.	4E^^>/ 4e	.	4g#X^^>/	4d\	.
*	*	*	*	*	*	*	*	*v	*v	*
=32||	=32||	=32||	=32||	=32||	=32||	=32||	=32||	=32||	=32||
*^	*	*	*	*	*	*	*	*	*
!	!	!	!	!	!LO:ART:color=blue	!	!LO:ART:color=blue	!	!LO:ART:color=blue	!
!LO:ART:color=blue	!	!LO:DY:rj	!LO:ART:color=blue	!LO:DY:rj	!	!LO:DY:rj	!LO:TX:a:t=Col 1m e 2o	!LO:DY:rj	!LO:TX:a:t=a:color=red:rj	!LO:DY:rj
2A^</	[<2AA\	ff	2A^>\ 2c	ff	2a^>\ 2cc	ff	2A^</yy 2ayy	ff	2A^</ 2a	ff
!LO:ART:color=blue	!	!	!LO:ART:color=blue	!	!LO:ART:color=blue	!	!LO:ART:color=blue	!	!LO:ART:color=blue	!
4A^</	8AA\]	.	2B^>\ 2d	.	2b^>\ 2dd	.	4.A^</yy 4.ayy	.	4.A^</ 4.a	.
.	8r	.	.	.	.	.	.	.	.	.
8r	4r	.	.	.	.	.	.	.	.	.
8A/	.	.	.	.	.	.	8A/yy 8ayy	.	8A/ 8a	.
=33	=33	=33	=33	=33	=33	=33	=33	=33	=33	=33
*rep	*rep	*	*	*	*	*	*	*	*rep	*
!LO:ART:color=blue	!	!	!LO:ART:color=blue	!	!LO:ART:color=blue	!	!	!	!LO:ART:color=blue	!
2A^</	[<2AA\	.	2cn^>\ 2e-X	.	2cc^>\ 2ee-X	.	2A^</yy 2ayy	.	2A^</ 2a	.
!LO:ART:color=blue	!	!	!LO:ART:color=blue	!	!LO:ART:color=blue	!	!	!	!LO:ART:color=blue	!
4A^</	8AA\]	.	2c#X^>\ 2en	.	2cc#X^>\ 2een	.	4.A^</yy 4.ayy	.	4.A^</ 4.a	.
.	8r	.	.	.	.	.	.	.	.	.
8r	4r	.	.	.	.	.	.	.	.	.
8A/	.	.	.	.	.	.	8A/yy 8ayy	.	8A/ 8a	.
*Xrep	*Xrep	*	*	*	*	*	*	*	*Xrep	*
!!LO:LB:g=original
=34	=34	=34	=34	=34	=34	=34	=34	=34	=34	=34
*	*	*	*^	*	*^	*	*	*	*	*
!LO:ART:color=blue	!	!	!LO:ART:color=blue	!	!	!	!	!	!LO:ART:color=blue	!	!	!
2A^</	2AA\	.	4f^>/	4d\	.	4dd/	4dd\	.	4A^</yy 4ayy	.	4A/ 4a	.
!	!	!	!LO:ART:color=blue	!	!	!	!	!	!	!	!	!
.	.	.	4f#X^>\	4d#X\	.	8.cc/L	8.cc\L	.	8.A/Lyy 8.ayy	.	8.A/L 8.a	.
.	.	.	.	.	.	16b/Jk	16b\Jk	.	16A/Jkyy 16ayy	.	16A/Jk 16a	.
!	!	!	!LO:ART:color=blue	!	!	!	!	!	!	!	!	!
4A/	4AA\	.	4e^>/	4e\	.	4a/	4a\	.	4A/yy 4ayy	.	4A/ 4a	.
!	!	!	!LO:ART:color=blue	!	!	!	!	!	!	!	!	!
4A/	4AA\	.	4fn^>/	4dn\	.	4b/	4ryy	.	4A/yy 4ayy	.	4A/ 4a	.
=35	=35	=35	=35	=35	=35	=35	=35	=35	=35	=35	=35	=35
*	*	*	*	*	*	*	*	*	*^	*	*^	*
!LO:ART:color=blue	!	!	!	!	!	!	!	!	!	!	!	!	!	!
2A/^<	2AA\	.	(>2f#X^>/	(<2d#X\	.	(>2cc^>/	(<2a\	.	8A/	8A\	.	2c/ 2a	2ryy	.
.	.	.	.	.	.	.	.	.	8r	8ryy	.	.	.	.
.	.	.	.	.	.	.	.	.	8A/	8A\	.	.	.	.
.	.	.	.	.	.	.	.	.	8r	8ryy	.	.	.	.
4EE/ 4E	4ryy	.	4e\)) 4g#X	4ryy	.	4b/)	4e\)	.	4E/ 4e	4ryy	.	4g#X/	4e\	.
4r	4ryy	.	4r	4ryy	.	4r	4ryy	.	4r	4ryy	.	4r	4ryy	.
*v	*v	*	*	*	*	*	*	*	*	*	*	*v	*v	*
*	*	*v	*v	*	*	*	*	*	*	*	*	*
=36	=36	=36	=36	=36	=36	=36	=36	=36	=36	=36	=36
!	!	!	!	!	!LO:ART:color=blue	!	!LO:ART:color=blue	!	!	!	!
1r	.	1r	.	4a/	4c^<\	.	4A^>/	4A\	.	4r	.
.	.	.	.	8.g#X/L	8.e\L	.	4r	4ryy	.	4E^</ 4e	.
.	.	.	.	16a/Jk	16e\Jk	.	.	.	.	.	.
!	!	!	!	!	!	!	!LO:ART:color=blue	!	!	!	!
.	.	.	.	4.b/	4.e\	.	4E^>/	4E\	.	4r	.
.	.	.	.	.	.	.	4r	4ryy	.	4E^</ 4e	.
.	.	.	.	8r	8ryy	.	.	.	.	.	.
*	*	*	*	*v	*v	*	*	*	*	*	*
=37	=37	=37	=37	=37	=37	=37	=37	=37	=37	=37
*	*	*	*	*	*	*rep	*rep	*	*rep	*
!	!	!	!	!LO:ART:color=blue	!	!	!	!	!	!
1r	.	1r	.	4a^</ 4cc	.	4A^>/	4A\	.	4r	.
.	.	.	.	8.e/L 8.b	.	4r	4ryy	.	4E^</ 4e	.
.	.	.	.	16c/Jk 16a	.	.	.	.	.	.
.	.	.	.	4.e/ 4.b	.	4E^>/	4E\	.	4r	.
.	.	.	.	.	.	4r	4ryy	.	4E^</ 4e	.
.	.	.	.	8r	.	.	.	.	.	.
*	*	*	*	*	*	*Xrep	*Xrep	*	*Xrep	*
=38	=38	=38	=38	=38	=38	=38	=38	=38	=38	=38
!	!	!	!	!LO:ART:color=blue	!	!LO:ART:color=blue	!	!	!	!
1r	.	1r	.	4a^>\ 4cc	.	4A^>/	4A\	.	4r	.
!	!	!	!	!	!	!	!	!	!LO:ART:color=blue	!
.	.	.	.	8.e/L 8.b	.	4r	4ryy	.	4E^</ 4e	.
.	.	.	.	16a/Jk 16cc	.	.	.	.	.	.
!	!	!	!	!	!	!LO:ART:color=blue	!	!	!	!
.	.	.	.	4.b\ 4.dd	.	4G^>/	4G\	.	4r	.
!	!	!	!	!	!	!	!	!	!LO:ART:color=blue	!
.	.	.	.	.	.	4r	4ryy	.	4G^</ 4g	.
!	!	!	!	!LO:TX:b:t==B:color=red	!	!	!	!	!LO:TX:t=P:problem:czerwona kreska zamykająca część	!
.	.	.	.	8r	.	.	.	.	.	.
=39||	=39||	=39||	=39||	=39||	=39||	=39||	=39||	=39||	=39||	=39||
!	!	!	!	!	!	!LO:ART:color=blue	!	!	!	!
1r	.	1r	.	4cc\ 4ee	.	4c^>/	4c\	.	4r	.
!	!	!	!	!	!	!	!	!	!LO:ART:color=blue	!
.	.	.	.	8.g/L 8.dd	.	4r	4ryy	.	4G^</ 4g	.
.	.	.	.	16e/Jk 16cc	.	.	.	.	.	.
!	!	!	!	!	!	!LO:ART:color=blue	!	!	!	!
.	.	.	.	4g\ 4dd	.	4G^>/	4G\	.	4r	.
!	!	!	!	!	!	!	!	!	!LO:ART:color=blue	!
.	.	.	.	4r	.	4r	4ryy	.	4G^</ 4g	.
!!LO:LB:g=original
=40	=40	=40	=40	=40	=40	=40	=40	=40	=40	=40
*	*	*	*	*^	*	*	*	*	*^	*
!LO:ART:color=blue	!	!LO:ART:color=blue	!	!	!LO:ART:color=blue	!	!	!	!	!LO:ART:color=blue	!	!
2C^>\ 2c	.	2G^</ 2e	.	4.ee/	2cc^<\	.	2c^>/	2G\	.	2g^>/	2c\	.
.	.	.	.	8ff/	.	.	.	.	.	.	.	.
4BB\ 4B	.	4G/ 4d	.	4gg/	4dd\	.	4BX/	4G\	.	4g/	4d\	.
4BB-X\ 4B-X	.	4G/ 4e	.	4ee/	4g\	.	4B-/	4G\	.	4g/	4e\	.
=41	=41	=41	=41	=41	=41	=41	=41	=41	=41	=41	=41	=41
!LO:ART:color=blue	!	!LO:ART:color=blue	!	!	!LO:ART:color=blue	!	!	!	!	!	!	!
2AA^>\ 2A	.	2c^>\ 2e	.	4.cc/	2a^<\	.	2A^>/	2A\	.	2a/	2c\	.
.	.	.	.	8dd/	.	.	.	.	.	.	.	.
4GG#X\ 4G#X	.	4B\ 4e	.	4ee/	4b\	.	4G#X^>/	4G#\	.	4e/	4BX\	.
4GGn\ 4Gn	.	4c\ 4e	.	4cc/	4a\	.	4Gn/	4Gn\	.	4e/	4c\	.
=42	=42	=42	=42	=42	=42	=42	=42	=42	=42	=42	=42	=42
!LO:ART:color=blue	!	!LO:ART:color=blue	!	!	!LO:ART:color=blue	!	!	!	!	!	!	!
2FF^</ 2F	.	2A^>\ 2d	.	(>4.b/	4a^<\	.	8F/	8F\	.	4d/	4d\	.
.	.	.	.	.	.	.	8r	8ryy	.	.	.	.
.	.	.	.	.	8.a\L	.	8.A\L	8.ryy	.	8.A/L 8.a	8.ryy	.
.	.	.	.	16cc/LL	.	.	.	.	.	.	.	.
.	.	.	.	16dd/JJ	16a\Jk	.	16A\Jk	16ryy	.	16A/Jk 16a	16ryy	.
4EE/ 4E	.	4A\ 4e	.	4cc/)	4a\	.	4A\	4ryy	.	4A/ 4a	4ryy	.
4DD/ 4D	.	4A\ 4f	.	4b/	4a\	.	4A/ 4f	4ryy	.	4a/	4d\	.
=43	=43	=43	=43	=43	=43	=43	=43	=43	=43	=43	=43	=43
*^	*	*^	*	*	*	*	*	*	*	*	*	*
!LO:ART:color=blue	!	!	!LO:ART:color=blue	!	!	!LO:ART:color=blue	!	!	!LO:ART:color=blue	!	!	!	!LO:ART:color=blue	!
4C^</	4EE\	.	[>2e^</	[<2E\	.	4ee^</	4e\	.	4e^>/	4e\	.	2a/	2A^>\	.
8.BB/L	4r	.	.	.	.	8.ee/L	8.e\L	.	8.e/L	8.e\L	.	.	.	.
16AA/Jk	.	.	.	.	.	16ee/Jk	16e\Jk	.	16e/Jk	16e\Jk	.	.	.	.
4E/	2r	.	8e/]	8E\]	.	8ee/	8e\	.	8e/	8e\	.	8e/	8e\	.
.	.	.	8ryy	8ryy	.	8r	8ryy	.	8r	8ryy	.	8r	8ryy	.
4r	.	.	4ryy	4ryy	.	4r	4ryy	.	4r	4ryy	.	4r	4ryy	.
*v	*v	*	*	*	*	*	*	*	*	*	*	*	*	*
=44	=44	=44	=44	=44	=44	=44	=44	=44	=44	=44	=44	=44	=44
!LO:ART:color=blue	!	!LO:ART:color=blue	!	!	!LO:ART:color=blue	!	!	!LO:ART:color=blue	!	!	!LO:ART:color=blue	!	!
2C\ 2c^>	.	2G^</ 2e	2.ryy	.	4.ee^>/	2cc\	.	2c^>/	2G\	.	2g^>/	2c\	.
.	.	.	.	.	8ff/	.	.	.	.	.	.	.	.
4BB\ 4B	.	4G/ 4d	.	.	4gg/	4dd\	.	4BX/	4G\	.	4g/	4d\	.
4BB-X\ 4B-X	.	4e/	4e\	.	4ee/	4g\	.	4B-/	4G\	.	4g/	4e\	.
*	*	*v	*v	*	*	*	*	*	*	*	*	*	*
!!LO:PB:g=original
=45	=45	=45	=45	=45	=45	=45	=45	=45	=45	=45	=45	=45
2AA\ 2A	.	2c#X\ 2e	.	4.cc#X/	2a\	.	2A/	2A\	.	2a/	2c#X\	.
.	.	.	.	8dd/	.	.	.	.	.	.	.	.
4GG#X/ 4G#X	.	4B\ 4e	.	4ee/	4b\	.	4G#X/	4G#\	.	4e/	4e\	.
4GGn/ 4Gn	.	4c#\ 4e	.	4a/	4a\	.	4Gn/	4Gn\	.	4A/ 4a	4ryy	.
*	*	*	*	*	*	*	*	*	*	*v	*v	*
=46	=46	=46	=46	=46	=46	=46	=46	=46	=46	=46	=46
!	!	!	!	!	!	!	!LO:TX:b:t=3tio	!	!	!	!
!	!	!	!	!	!	!	!LO:TX:a:t=4to	!	!	!	!
4FF#X/ 4F#X	.	4A\ 4d	.	(>4.dd/	4a\	.	4A/	4F#X\	.	4A/ 4a	.
4FFn/ 4Fn	.	4A\ 4d	.	.	8.a\L	.	8.A/L	4F\	.	8.A/L 8.a	.
.	.	.	.	16cc/LL	.	.	.	.	.	.	.
.	.	.	.	16b/JJ	16a\Jk	.	16A/Jk	.	.	16A/Jk 16a	.
4EE/ 4E	.	4A\ 4e	.	8ee/)	4a\	.	4A/	4E\	.	4A/ 4a	.
.	.	.	.	8r	.	.	.	.	.	.	.
!	!	!	!	!	!	!	!	!	!	!LO:TX:t=P:problem:wykreślony takt	!
4DD/ 4D	.	4A\ 4f	.	4a/	4a\	.	4A/	4A\	.	4d\ 4f	.
*	*	*	*	*	*	*	*v	*v	*	*	*
=47	=47	=47	=47	=47	=47	=47	=47	=47	=47	=47
*^	*	*	*	*	*	*	*	*	*	*
!LO:N:vis=8	!	!	!	!	!	!	!	!	!	!	!
4C/	4CC\	.	(<2A\ (>2c	.	(>2cc/	(<2a\	.	4E/ 4e	.	4E/ 4e	.
8r	4r	.	.	.	.	.	.	8.E/L 8.e	.	8.E/L 8.e	.
8A/	.	.	.	.	.	.	.	.	.	.	.
.	.	.	.	.	.	.	.	16E/Jk 16e	.	16E/Jk 16e	.
8E/	8EE\	.	8G#X\) 8B)	.	8b/)	8e\)	.	8E/ 8e	.	8E/ 8e	.
8r	8ryy	.	8r	.	8r	8ryy	.	8r	.	8r	.
4r	4ryy	.	4r	.	4r	4ryy	.	4r	.	4r	.
*v	*v	*	*	*	*v	*v	*	*	*	*	*
=48	=48	=48	=48	=48	=48	=48	=48	=48	=48
1r	.	1r	.	1r	.	1r	.	1r	.
=49	=49	=49	=49	=49	=49	=49	=49	=49	=49
1r	.	1r	.	1r	.	1r	.	1r	.
!!LO:LB:g=original
!!linebreak:original
=50	=50	=50	=50	=50	=50	=50	=50	=50	=50
1r	.	1r	.	1r	.	1r	.	[<1A [>1a	p
=51	=51	=51	=51	=51	=51	=51	=51	=51	=51
1ryy	.	1ryy	.	1ryy	.	1r	.	1A] 1a]	<[
=52	=52	=52	=52	=52	=52	=52	=52	=52	=52
*	*	*	*	*	*	*^	*	*^	*
!	!	!	!	!	!	!	!	!LO:DY:rj	!	!	!LO:DY:rj
1ryy	.	1ryy	.	1ryy	.	8g/	8e\	sf	[>1g	8e\	sf
.	.	.	.	.	.	8r	8ryy	.	.	8r	.
.	.	.	.	.	.	4r	4ryy	.	.	4r	.
.	.	.	.	.	.	2r	2ryy	.	.	2r	.
*	*	*	*	*	*	*v	*v	*	*	*	*
=53	=53	=53	=53	=53	=53	=53	=53	=53	=53	=53
1ryy	.	1ryy	.	1ryy	.	1r	.	4g/]	1r	.
.	.	.	.	.	.	.	.	4r	.	.
.	.	.	.	.	.	.	.	2r	.	.
=54	=54	=54	=54	=54	=54	=54	=54	=54	=54	=54
*	*	*	*	*	*	*^	*	*	*	*
!	!	!	!	!	!	!	!	!LO:DY:rj:t=p.	!	!	!
1ryy	.	1ryy	.	1ryy	.	[1d	1r	p	2r	2ryy	.
.	.	.	.	.	.	.	.	.	4r	4ryy	.
.	.	.	.	.	.	.	.	.	4d/	4d\	p
=55	=55	=55	=55	=55	=55	=55	=55	=55	=55	=55	=55
!	!	!	!	!	!	!	!	!	!	!LO:TX:t=P:problem:diminuendolike accent:problem	!
1r	.	1r	.	1r	.	1d]	1r	<	(>2f/	(>2f\^<	.
.	.	.	.	.	.	.	.	.	8d/)	8d\)	.
.	.	.	.	.	.	.	.	.	8r	8ryy	.
.	.	.	.	.	.	.	.	[	4r	4ryy	.
*	*	*	*	*	*	*v	*v	*	*	*	*
*	*	*	*	*	*	*	*	*v	*v	*
!!LO:LB:g=original
=56	=56	=56	=56	=56	=56	=56	=56	=56	=56
1r	.	1r	.	1r	.	1r	.	1r	.
=57	=57	=57	=57	=57	=57	=57	=57	=57	=57
*	*	*	*	*	*	*	*	*^	*
1r	.	1r	.	1r	.	1r	.	2r	1rc	.
.	.	.	.	.	.	.	.	4r	.	.
.	.	.	.	.	.	.	.	4e/	.	p
=58	=58	=58	=58	=58	=58	=58	=58	=58	=58	=58
1r	.	1r	.	1r	.	1r	.	(>1a	(<1d	.
=59	=59	=59	=59	=59	=59	=59	=59	=59	=59	=59
1r	.	1r	.	1r	.	1r	.	(>2d/)	1A)	.
!	!	!	!	!	!	!	!	!LO:TX:t=P:problem:wykreślone takty we wszystkich  głosach	!	!
.	.	.	.	.	.	.	.	2d#X/)	.	.
*	*	*	*	*	*	*	*	*v	*v	*
!!LO:PB:g=original
=60	=60	=60	=60	=60	=60	=60	=60	=60	=60
*^	*	*^	*	*^	*	*	*	*	*
!	!	!	!	!	!	!	!	!	!LO:TX:a:t=Col 1. e 2.	!	!LO:TX:a:t=E:color=blue:rj	!
2E/	2EE\	.	2B/	2G#X\	.	2ee/	2g#X\	.	(<2E/yy 2eyy	.	(<2E/ 2e	.
4E/	4EE\	.	4d/	4A\	.	4dd/	4a\	.	4F/yy 4fyy	.	4F/ 4f	.
4E/	4EE\	.	4d/	4A\	.	4a/	4a\	.	4F#X/yy 4f#Xyy	.	4F#X/ 4f#X	.
=61	=61	=61	=61	=61	=61	=61	=61	=61	=61	=61	=61	=61
2E/	2.EE\	.	(>2e/	(<2c\	.	(>2cc/	(<2gn\	.	2G/yy 2gyy	sf y	2G/ 2g	sf
4E/	.	.	4d/)	4A\)	.	4b/)	4a\)	.	4F#X/yy 4f#Xyy	.	4F#X/ 4f#X	.
4A/	4r	.	4d#X/	4A\	.	4b/	4a\	.	4F/)yy 4fyy	.	4F/) 4f	.
=62	=62	=62	=62	=62	=62	=62	=62	=62	=62	=62	=62	=62
*rep	*rep	*	*rep	*rep	*	*rep	*rep	*	*	*	*rep	*
2E/	2EE\	.	2B/	2G#X\	.	2ee/	2g#X\	.	(<2E/yy 2eyy	.	(2E/ 2e	.
4E/	4EE\	.	4d/	4A\	.	4dd/	4a\	.	4F/yy 4fyy	.	4F/ 4f	.
4E/	4EE\	.	4d/	4A\	.	4a/	4a\	.	4F#X/yy 4f#Xyy	.	4F#X/ 4f#X	.
*Xrep	*Xrep	*	*Xrep	*Xrep	*	*Xrep	*Xrep	*	*	*	*Xrep	*
=63	=63	=63	=63	=63	=63	=63	=63	=63	=63	=63	=63	=63
*rep	*rep	*	*rep	*rep	*	*rep	*rep	*	*	*	*rep	*
2E/	2.EE\	.	(>2e/	(<2c\	.	(>2cc/	(<2gn\	.	2G/yy 2gyy	sf y	2G/ 2g	sf y
4E/	.	.	4d/)	4A\)	.	4b/)	4a\)	.	4F#X/yy 4f#Xyy	.	4F#X/ 4f#X	.
4A/	4r	.	4d#X/	4A\	.	4b/	4a\	.	4F/)yy 4fyy	.	4F/) 4f	.
*Xrep	*Xrep	*	*Xrep	*Xrep	*	*Xrep	*Xrep	*	*	*	*Xrep	*
*	*	*	*v	*v	*	*	*	*	*	*	*	*
=64	=64	=64	=64	=64	=64	=64	=64	=64	=64	=64	=64
8E/	8EE\	.	8G#X\ 8e	.	8b/	8b\	.	8E/yy 8eyy	.	8E/ 8e	.
8r	8ryy	.	8r	.	8r	8ryy	.	8ryy	.	8r	.
2E^</	2EE\	.	2G#^>\ 2B	.	2e^>/	2e\	.	2E/yy 2eyy	.	2E/ 2e	.
8.E/L	4r	.	4A\ 4c	.	4f#X/	4e\	.	8.E/Lyy 8.eyy	.	8.E/L 8.e	.
16E/Jk	.	.	.	.	.	.	.	16E/Jkyy 16eyy	.	16E/Jk 16e	.
=65	=65	=65	=65	=65	=65	=65	=65	=65	=65	=65	=65
*	*	*	*^	*	*	*	*	*	*	*	*
4E/	4r	.	4B\ 4d	4ryy	.	4g#X/	4e\	.	4E/yy 4eyy	.	4E/ 4e	.
*	*	*	*	*	*	*	*	*	*	*	*rep	*
4E/	4EE/	.	4c\ 4e	4ryy	.	4a/	4f#X\	.	4E/yy 4eyy	.	4E/ 4e	.
*	*	*	*	*	*	*	*	*	*	*	*Xrep	*
*	*	*	*	*	*	*	*	*	*	*	*rep	*
4E/	4EE/	.	4f/	4d\	.	4b/	4g#X\	.	4E/yy 4eyy	.	4E/ 4e	.
*	*	*	*	*	*	*	*	*	*	*	*Xrep	*
*	*	*	*	*	*	*	*	*	*	*	*rep	*
4E/	4EE/	.	4e/	4c\	.	4cc/	4a\	.	4E/yy 4eyy	.	4E/ 4e	.
*	*	*	*	*	*	*	*	*	*	*	*Xrep	*
*	*	*	*v	*v	*	*	*	*	*	*	*	*
=66	=66	=66	=66	=66	=66	=66	=66	=66	=66	=66	=66
8E/	4EE/	.	8B\ 8e	.	8ee/	8g#X\	.	8E/yy 8eyy	.	8E/ 8e	.
8r	.	.	8r	.	8r	8ryy	.	8ryy	.	8r	.
2E/	2EE\	.	2B^>\ 2e	.	2dd^>/	2g#\	.	2E^/yy 2eyy	.	2E^</ 2e	.
8.E/L	4r	.	4c\ 4e	.	4cc/	4a\	.	8.E/Lyy 8.eyy	.	8.E/L 8.e	.
16E/Jk	.	.	.	.	.	.	.	16E/Jkyy 16eyy	.	16E/Jk 16e	.
!!LO:LB:g=original
=67	=67	=67	=67	=67	=67	=67	=67	=67	=67	=67	=67
!	!LO:TX:t=P:problem:trudno ustalić, czy w wersji ostatecznej jest tu pauza, czy nuta (4EE)	!	!	!	!	!	!	!	!	!	!
4E/	4r	.	4B\ 4d	.	4b/	4g#X\	.	4E/yy 4eyy	.	4E/ 4e	.
*	*	*	*	*	*	*	*	*	*	*rep	*
4EE/ 4E	4ryy	.	4c\ 4e	.	4a/	4f#X\	.	4E/yy 4eyy	.	4E/ 4e	.
*	*	*	*	*	*	*	*	*	*	*Xrep	*
*	*	*	*	*	*	*	*	*	*	*rep	*
4EE/ 4E	4ryy	.	4B\ 4d	.	4g#/	4e\	.	4E/yy 4eyy	.	4E/ 4e	.
*	*	*	*	*	*	*	*	*	*	*Xrep	*
4EE/ 4E	4ryy	.	4A\ 4c	.	4f#/	4d#X\	.	4E/yy 4Ayy	.	4E/ 4A	.
*v	*v	*	*	*	*	*	*	*	*	*	*
=68||	=68||	=68||	=68||	=68||	=68||	=68||	=68||	=68||	=68||	=68||
!	!	!LO:TX:b:t=meno moſso:color=blue	!	!	!	!	!LO:TX:b:t=meno moſso.	!	!	!
8EE/ 8E	.	8E/ 8B	.	8e/	8e\	.	8E/@ 8e@	.	8E/ 8e	.
8r	.	8r	.	8r	8ryy	.	8r@	.	8r	.
4EE/ 4E	.	4G#X^>\ 4B	.	4g#X^</ 4b	4ryy	.	4E/@ 4e@	.	4E^</ 4e	.
2r	.	2r	.	2r	2ryy	.	2r	.	2r	.
*	*	*	*	*v	*v	*	*	*	*	*
=69	=69	=69	=69	=69	=69	=69	=69	=69	=69
1r	.	1r	.	1r	.	1r	.	1r	.
=70	=70	=70	=70	=70	=70	=70	=70	=70	=70
*	*	*	*	*	*	*	*	*^	*
1r	.	1r	.	1r	.	1r	.	4r	1rc	.
.	.	.	.	.	.	.	.	[>2.c^</	.	.
*	*	*	*	*	*	*	*	*v	*v	*
=71	=71	=71	=71	=71	=71	=71	=71	=71	=71
*	*	*	*	*	*	*^	*	*	*
1ryy	.	1ryy	.	1ryy	.	4r	1r	.	8c/]	.
.	.	.	.	.	.	.	.	.	8r	.
!	!	!	!	!	!	!	!	!LO:DY:rj	!	!
.	.	.	.	.	.	2G^</	.	p	4r	.
.	.	.	.	.	.	.	.	.	2r	.
.	.	.	.	.	.	8.C/L	.	.	.	.
.	.	.	.	.	.	16C/Jk	.	.	.	.
*	*	*	*	*	*	*v	*v	*	*	*
=72	=72	=72	=72	=72	=72	=72	=72	=72	=72
1ryy	.	1ryy	.	1ryy	.	4C/	.	1r	.
.	.	.	.	.	.	4r	.	.	.
.	.	.	.	.	.	2r	.	.	.
=73	=73	=73	=73	=73	=73	=73	=73	=73	=73
1r	.	1r	.	1r	.	1r	.	1r	.
!!LO:LB:g=original
=74	=74	=74	=74	=74	=74	=74	=74	=74	=74
1r	.	1r	.	1r	.	1r	.	4r	.
!	!	!	!	!	!	!	!	!	!LO:DY:rj
.	.	.	.	.	.	.	.	[>2.a-X\^<	p
=75	=75	=75	=75	=75	=75	=75	=75	=75	=75
*	*	*	*	*	*	*^	*	*	*
1ryy	.	1ryy	.	1ryy	.	4r	1r	p	8a-\]	.
.	.	.	.	.	.	.	.	.	8r	.
.	.	.	.	.	.	2e-X^</	.	.	4r	.
.	.	.	.	.	.	.	.	.	2r	.
.	.	.	.	.	.	8.A-X/L	.	.	.	.
.	.	.	.	.	.	16A-/Jk	.	.	.	.
*	*	*	*	*	*	*v	*v	*	*	*
=76	=76	=76	=76	=76	=76	=76	=76	=76	=76
1ryy	.	1ryy	.	1ryy	.	8A-X/	.	1r	.
.	.	.	.	.	.	8r	.	.	.
.	.	.	.	.	.	4r	.	.	.
.	.	.	.	.	.	2r	.	.	.
=77	=77	=77	=77	=77	=77	=77	=77	=77	=77
1r	.	1r	.	1r	.	1r	.	1r	.
=78	=78	=78	=78	=78	=78	=78	=78	=78	=78
1r	.	1r	.	1r	.	1r	.	1r	.
=79	=79	=79	=79	=79	=79	=79	=79	=79	=79
1r	.	1r	.	1r	.	1r	.	1r	.
=80	=80	=80	=80	=80	=80	=80	=80	=80	=80
1r	.	1r	.	1r	.	1r	.	1r	.
=81	=81	=81	=81	=81	=81	=81	=81	=81	=81
1r	.	1r	.	1r	.	1r	.	1r	.
=82	=82	=82	=82	=82	=82	=82	=82	=82	=82
1r	.	1r	.	1r	.	1r	.	1r	.
=83	=83	=83	=83	=83	=83	=83	=83	=83	=83
1r	.	1r	.	1r	.	1r	.	1r	.
=84	=84	=84	=84	=84	=84	=84	=84	=84	=84
1r	.	1r	.	1r	.	1r	.	1r	.
=85||	=85||	=85||	=85||	=85||	=85||	=85||	=85||	=85||	=85||
!	!	!	!	!	!	!	!	!LO:TX:a:t=a tempo.	!
1r	.	1r	.	1r	.	1r	.	1r	.
=86	=86	=86	=86	=86	=86	=86	=86	=86	=86
1r	.	1r	.	1r	.	1r	.	1r	.
=87	=87	=87	=87	=87	=87	=87	=87	=87	=87
1r	.	1r	.	1r	.	1r	.	1r	.
=88	=88	=88	=88	=88	=88	=88	=88	=88	=88
1r	.	1r	.	1r	.	1r	.	1r	.
=89	=89	=89	=89	=89	=89	=89	=89	=89	=89
1r	.	1r	.	1r	.	1r	.	1r	.
=90	=90	=90	=90	=90	=90	=90	=90	=90	=90
1r	.	1r	.	1r	.	1r	.	1r	.
=91	=91	=91	=91	=91	=91	=91	=91	=91	=91
1r	.	1r	.	1r	.	1r	.	1r	.
=92	=92	=92	=92	=92	=92	=92	=92	=92	=92
1r	.	1r	.	1r	.	1r	.	1r	.
=93	=93	=93	=93	=93	=93	=93	=93	=93	=93
*	*	*	*	*	*	*	*	*^	*
1ryy	.	1ryy	.	1ryy	.	1ryy	.	4r	1rc	.
!	!	!	!	!	!	!	!	!LO:TX:a:t=Solo	!	!LO:DY:rj
.	.	.	.	.	.	.	.	8.c/L	.	p
.	.	.	.	.	.	.	.	16c/Jk	.	.
.	.	.	.	.	.	.	.	[<2c/	.	.
=94	=94	=94	=94	=94	=94	=94	=94	=94	=94	=94
1ryy	.	1ryy	.	1ryy	.	1ryy	.	8c/]	1r	.
.	.	.	.	.	.	.	.	8r	.	.
.	.	.	.	.	.	.	.	8.c/L	.	.
.	.	.	.	.	.	.	.	16c/Jk	.	.
.	.	.	.	.	.	.	.	[<2c/	.	.
*	*	*	*	*	*	*	*	*v	*v	*
=95	=95	=95	=95	=95	=95	=95	=95	=95	=95
1ryy	.	1ryy	.	1ryy	.	1ryy	.	8c/]yy	.
.	.	.	.	.	.	.	.	8ryy	.
.	.	.	.	.	.	.	.	8.c/Lyy	.
.	.	.	.	.	.	.	.	16c/Jkyy	.
.	.	.	.	.	.	.	.	[<2c/yy	.
=96	=96	=96	=96	=96	=96	=96	=96	=96	=96
1r@	.	1r@	.	1r@	.	1r@	.	8c/]yy	.
.	.	.	.	.	.	.	.	8ryy	.
.	.	.	.	.	.	.	.	8.c/Lyy	.
.	.	.	.	.	.	.	.	16c/Jkyy	.
.	.	.	.	.	.	.	.	[<2c/yy	.
!!LO:PB:g=original
=97	=97	=97	=97	=97	=97	=97	=97	=97	=97
*	*	*	*	*	*	*	*	*^	*
1r@	.	1r@	.	1r@	.	1r@	.	8c/]yy	1r	.
.	.	.	.	.	.	.	.	8ryy	.	.
.	.	.	.	.	.	.	.	8.c/Lyy	.	.
.	.	.	.	.	.	.	.	16c/Jkyy	.	.
.	.	.	.	.	.	.	.	[<2c/yy	.	.
=98	=98	=98	=98	=98	=98	=98	=98	=98	=98	=98
1ryy	.	1ryy	.	1ryy	.	1r	.	8c/]yy	1r	.
.	.	.	.	.	.	.	.	8ryy	.	.
.	.	.	.	.	.	.	.	8.c/Lyy	.	.
.	.	.	.	.	.	.	.	16c/Jkyy	.	.
.	.	.	.	.	.	.	.	[<2c/yy	.	.
=99	=99	=99	=99	=99	=99	=99	=99	=99	=99	=99
1ryy	.	1ryy	.	1ryy	.	1r	.	8c/]yy	1r	.
.	.	.	.	.	.	.	.	8ryy	.	.
.	.	.	.	.	.	.	.	8.c/Lyy	.	.
.	.	.	.	.	.	.	.	16c/Jkyy	.	.
.	.	.	.	.	.	.	.	2c/yy	.	.
*	*	*	*	*	*	*	*	*v	*v	*
=100	=100	=100	=100	=100	=100	=100	=100	=100	=100
!	!	!	!	!	!	!	!	!	!LO:DY:rj
1ryy	.	1ryy	.	1ryy	.	1r	.	1A 1f	p
=101	=101	=101	=101	=101	=101	=101	=101	=101	=101
*	*	*	*	*	*	*^	*	*	*
!	!	!	!	!	!	!	!	!LO:DY:rj	!	!
1ryy	.	1ryy	.	1ryy	.	[>1f	1r	p	[>1B- [>1d	.
=102	=102	=102	=102	=102	=102	=102	=102	=102	=102	=102
1ryy	.	1ryy	.	1ryy	.	1f]	1r	.	1B-] 1d_>	.
=103	=103	=103	=103	=103	=103	=103	=103	=103	=103	=103
1ryy	.	1ryy	.	1ryy	.	[>1e	1r	.	1G 1d]	.
=104	=104	=104	=104	=104	=104	=104	=104	=104	=104	=104
*	*	*	*	*	*	*	*	*	*^	*
1ryy	.	1ryy	.	1ryy	.	8e/]	1r	.	8c#X/	8A\	.
.	.	.	.	.	.	8r	.	.	8r	8ryy	.
.	.	.	.	.	.	4r	.	.	4r	(>4A\	.
.	.	.	.	.	.	2r	.	.	2r	8D\)	.
.	.	.	.	.	.	.	.	.	.	8r	.
.	.	.	.	.	.	.	.	.	.	4r	.
*	*	*	*	*	*	*v	*v	*	*	*	*
*	*	*	*	*	*	*	*	*v	*v	*
=105	=105	=105	=105	=105	=105	=105	=105	=105	=105
1ryy	.	1ryy	.	1ryy	.	1r	.	4r	.
.	.	.	.	.	.	.	.	(>4G\	.
.	.	.	.	.	.	.	.	8C\)	.
.	.	.	.	.	.	.	.	8r	.
.	.	.	.	.	.	.	.	4r	.
=106	=106	=106	=106	=106	=106	=106	=106	=106	=106
1r	.	1r	.	1r	.	1r	.	1r	.
!!LO:LB:g=original
=107	=107	=107	=107	=107	=107	=107	=107	=107	=107
*	*	*	*	*	*	*	*	*^	*
!	!	!	!	!	!	!	!	!	!	!LO:DY:rj
1r	.	1r	.	1r	.	1r	.	2f/	1c	p
.	.	.	.	.	.	.	.	2e/	.	.
=108	=108	=108	=108	=108	=108	=108	=108	=108	=108	=108
1ryy	.	1ryy	.	1ryy	.	1r	.	[>1f	(<2c\	.
.	.	.	.	.	.	.	.	.	4B-\	.
.	.	.	.	.	.	.	.	.	4A\	.
=109	=109	=109	=109	=109	=109	=109	=109	=109	=109	=109
*	*	*	*	*	*	*^	*	*	*	*
!	!	!	!	!	!	!	!	!LO:DY:rj	!	!	!
1ryy	.	1ryy	.	1ryy	.	2d/	1r	p	1f]	8B-\)	.
.	.	.	.	.	.	.	.	.	.	8r	.
.	.	.	.	.	.	.	.	.	.	4r	.
.	.	.	.	.	.	2c/	.	.	.	2r	.
=110	=110	=110	=110	=110	=110	=110	=110	=110	=110	=110	=110
1ryy	.	1ryy	.	1ryy	.	1d	1r	.	1f	1r	.
*	*	*	*	*	*	*v	*v	*	*	*	*
=111	=111	=111	=111	=111	=111	=111	=111	=111	=111	=111
!	!	!	!	!	!	!	!LO:DY:rj	!	!	!LO:DY:rj
1ryy	.	1ryy	.	1ryy	.	[<1E [>1e	p	1g	1d	p
=112	=112	=112	=112	=112	=112	=112	=112	=112	=112	=112
1ryy	.	1ryy	.	1ryy	.	8E/] 8e]	.	1a	8A\	.
.	.	.	.	.	.	8r	.	.	8r	.
.	.	.	.	.	.	4r	.	.	4r	.
.	.	.	.	.	.	2r	.	.	2r	.
=113	=113	=113	=113	=113	=113	=113	=113	=113	=113	=113
1ryy	.	1ryy	.	1ryy	.	1r	.	1g	1r	.
=114	=114	=114	=114	=114	=114	=114	=114	=114	=114	=114
*	*	*	*	*	*	*^	*	*	*	*
!	!	!	!	!	!	!	!	!LO:DY:rj	!	!	!
1r	.	1r	.	1r	.	(<2c/	1r	p	1f	1r	.
.	.	.	.	.	.	2d/)	.	.	.	.	.
*	*	*	*	*	*	*	*	*	*v	*v	*
!!LO:LB:g=original
=115	=115	=115	=115	=115	=115	=115	=115	=115	=115	=115
1r	.	1r	.	1r	.	4c/	1r	.	[>1C [>1c	.
.	.	.	.	.	.	4r	.	.	.	.
.	.	.	.	.	.	2r	.	.	.	.
*	*	*	*	*	*	*v	*v	*	*	*
=116	=116	=116	=116	=116	=116	=116	=116	=116	=116
*	*	*	*	*	*	*	*	*rep	*
1ryy	.	1ryy	.	1ryy	.	1ryy	.	1C] 1c]	.
*	*	*	*	*	*	*	*	*Xrep	*
=117	=117	=117	=117	=117	=117	=117	=117	=117	=117
*	*	*	*	*	*	*	*	*^	*
1ryy	.	1ryy	.	1ryy	.	1ryy	.	4c/	4C\	.
.	.	.	.	.	.	.	.	4r	2C\	.
!	!	!	!	!	!	!	!	!LO:TX:b:a:t=crescendo ed accelerando.:problem:dynamics with extention lines	!	!LO:HP:a:t=crescendo-ed-accelerando.:ext=s
.	.	.	.	.	.	.	.	2r	.	<
.	.	.	.	.	.	.	.	.	[>4C\	.
=118	=118	=118	=118	=118	=118	=118	=118	=118	=118	=118
*	*	*	*	*	*	*	*	*rep	*rep	*
1ryy	.	1ryy	.	1ryy	.	1ryy	.	4c/	4C\]	.
.	.	.	.	.	.	.	.	4r	2C\	.
.	.	.	.	.	.	.	.	2r	.	.
.	.	.	.	.	.	.	.	.	4C\	.
*	*	*	*	*	*	*	*	*Xrep	*Xrep	*
=119	=119	=119	=119	=119	=119	=119	=119	=119	=119	=119
1ryy	.	1ryy	.	1ryy	.	1ryy	.	4r	4C\	.
.	.	.	.	.	.	.	.	2C/	2C\	.
.	.	.	.	.	.	.	.	4C/	[>4C\	.
=120	=120	=120	=120	=120	=120	=120	=120	=120	=120	=120
*	*	*	*	*	*	*	*	*rep	*rep	*
1ryy	.	1ryy	.	1ryy	.	1ryy	.	4r	4C\]	.
.	.	.	.	.	.	.	.	2C/	2C\	.
.	.	.	.	.	.	.	.	4C/	4C\	[[
*	*	*	*	*	*	*	*	*Xrep	*Xrep	*
=121	=121	=121	=121	=121	=121	=121	=121	=121	=121	=121
1ryy	.	1ryy	.	1ryy	.	1ryy	.	4C/	4C\	.
.	.	.	.	.	.	.	.	2C/	2C\	.
.	.	.	.	.	.	.	.	[<4C/ [>4c	4ryy	.
*	*	*	*	*	*	*	*	*v	*v	*
=122	=122	=122	=122	=122	=122	=122	=122	=122	=122
1r@	.	1r@	.	1r@	.	1r@	.	4C/] 4c]	.
.	.	.	.	.	.	.	.	2C/ 2c	.
.	.	.	.	.	.	.	.	4C/ 4c	.
!!LO:PB:g=original
=123||	=123||	=123||	=123||	=123||	=123||	=123||	=123||	=123||	=123||
!!!OMD: Presto
*M2/2	*	*M2/2	*	*M2/2	*	*M2/2	*	*M2/2	*
*met(c|)	*	*met(c|)	*	*met(c|)	*	*met(c|)	*	*met(c|)	*
!LO:TX:a:t=Presto:color=blue	!	!	!	!	!LO:DY:rj	!	!LO:DY:rj	!	!LO:DY:a
1r@	.	1r@	.	(>2b-X/	ff	[>2e\ [>2g	ff	[<2C#X/ [>2c#X	ff
.	.	.	.	8a/)	.	8e\] 8g]	.	8C#/] 8c#]	.
.	.	.	.	8r	.	8r	.	8r	.
.	.	.	.	4r	.	8r	.	8r	.
.	.	.	.	.	.	8e\ 8g	.	8A/ 8a	.
=124	=124	=124	=124	=124	=124	=124	=124	=124	=124
1r@	.	1r@	.	1r@	.	(>2e^>\ (>2g	.	2A^</ 2a	.
.	.	.	.	.	.	8d\) 8f)	.	8A/ 8a	.
.	.	.	.	.	.	8r	.	8r	.
.	.	.	.	.	.	8r	.	8r	.
.	.	.	.	.	.	8c#X/ 8e	.	8A/ 8a	.
=125	=125	=125	=125	=125	=125	=125	=125	=125	=125
*	*	*	*	*	*	*^	*	*	*
1r@	.	1r@	.	1r@	.	(<2c#X/ (>2e	2ryy	.	2A^</ 2a	.
.	.	.	.	.	.	8d/)	8d\)	.	8A/ 8a	.
.	.	.	.	.	.	8r	8ryy	.	4r	.
.	.	.	.	.	.	4r	4ryy	.	.	.
.	.	.	.	.	.	.	.	.	8D/ 8d	.
*	*	*	*	*	*	*v	*v	*	*	*
=126	=126	=126	=126	=126	=126	=126	=126	=126	=126
1r@	.	1r@	.	1r@	.	1r	.	2D/ 2d	.
.	.	.	.	.	.	.	.	8D/ 8d	.
.	.	.	.	.	.	.	.	4r	.
.	.	.	.	.	.	.	.	8D/ 8d	.
=127	=127	=127	=127	=127	=127	=127	=127	=127	=127
1r@	.	1r@	.	1r@	.	1r	.	4D/ 4d	.
.	.	.	.	.	.	.	.	2r	.
.	.	.	.	.	.	.	.	4r	.
=128	=128	=128	=128	=128	=128	=128	=128	=128	=128
1r	.	1r	.	1r	.	1r	.	1r	.
=129	=129	=129	=129	=129	=129	=129	=129	=129	=129
1r	.	1r	.	1r	.	1r	.	1r	.
=130	=130	=130	=130	=130	=130	=130	=130	=130	=130
1r	.	1r	.	1r	.	1r	.	1r	.
=131	=131	=131	=131	=131	=131	=131	=131	=131	=131
1r	.	1r	.	1r	.	1r	.	1r	.
=132	=132	=132	=132	=132	=132	=132	=132	=132	=132
1r	.	1r	.	1r	.	1r	.	1r	.
!!LO:LB:g=original
!!linebreak:original
=133	=133	=133	=133	=133	=133	=133	=133	=133	=133
*	*	*	*	*	*	*	*	*^	*
!	!	!	!	!	!	!	!	!	!	!LO:DY:a
1r@	.	1r@	.	1r@	.	1r@	.	[>1f	1r	p
=134	=134	=134	=134	=134	=134	=134	=134	=134	=134	=134
*	*	*	*	*	*	*	*	*rep	*	*
1ryy	.	1ryy	.	1ryy	.	1ryy	.	1f_>	1r	.
*	*	*	*	*	*	*	*	*Xrep	*	*
=135	=135	=135	=135	=135	=135	=135	=135	=135	=135	=135
*	*	*	*	*	*	*	*	*rep	*	*
1ryy	.	1ryy	.	1ryy	.	1ryy	.	1f_>	1r	.
*	*	*	*	*	*	*	*	*Xrep	*	*
=136	=136	=136	=136	=136	=136	=136	=136	=136	=136	=136
*	*	*	*	*	*	*	*	*rep	*	*
1ryy	.	1ryy	.	1ryy	.	1ryy	.	1f_>	1r	.
*	*	*	*	*	*	*	*	*Xrep	*	*
=137	=137	=137	=137	=137	=137	=137	=137	=137	=137	=137
1ryy	.	1ryy	.	1ryy	.	1ryy	.	4f/]	1r	.
.	.	.	.	.	.	.	.	2r	.	.
.	.	.	.	.	.	.	.	4r	.	.
*	*	*	*	*	*	*	*	*v	*v	*
=138	=138	=138	=138	=138	=138	=138	=138	=138	=138
!	!	!LO:TX:b:t=ralent:color=blue	!	!	!	!LO:TX:a:t=ralent	!	!	!
1r	.	1r	.	1r	.	1r	.	1r	.
=139	=139	=139	=139	=139	=139	=139	=139	=139	=139
1r	.	1r	.	1r	.	1r	.	1r	.
=140	=140	=140	=140	=140	=140	=140	=140	=140	=140
1r	.	1r	.	1r	.	1r	.	1r	.
=141	=141	=141	=141	=141	=141	=141	=141	=141	=141
1r	.	1r	.	1r	.	1r	.	1r	.
=142	=142	=142	=142	=142	=142	=142	=142	=142	=142
1r	.	1r	.	1r	.	1r	.	1r	.
=143	=143	=143	=143	=143	=143	=143	=143	=143	=143
1r	.	1r	.	1r	.	1r	.	1r	.
=144	=144	=144	=144	=144	=144	=144	=144	=144	=144
1r	.	1r	.	1r	.	1r	.	1r	.
=145||	=145||	=145||	=145||	=145||	=145||	=145||	=145||	=145||	=145||
*M4/4	*	*M4/4	*	*M4/4	*	*M4/4	*	*M4/4	*
*met(c)	*	*met(c)	*	*met(c)	*	*met(c)	*	*met(c)	*
!LO:TX:a:t=Lento:color=blue	!	!	!	!	!	!	!	!LO:TX:a:t=Lento	!
1ryy	.	1ryy	.	1ryy	.	1ryy	.	1r	.
=146	=146	=146	=146	=146	=146	=146	=146	=146	=146
*	*	*	*	*	*	*	*	*^	*
!	!	!	!	!	!	!	!	!	!	!LO:DY:rj
1ryy	.	1ryy	.	1ryy	.	1ryy	.	(>2c/	1r	p
.	.	.	.	.	.	.	.	4C/)	.	.
.	.	.	.	.	.	.	.	4r	.	.
*	*	*	*	*	*	*	*	*v	*v	*
=147	=147	=147	=147	=147	=147	=147	=147	=147	=147
1r@	.	1r@	.	1r@	.	1r@	.	1r	.
!!LO:LB:g=original
=148	=148	=148	=148	=148	=148	=148	=148	=148	=148
*	*	*	*	*	*	*	*	*^	*
1r@	.	1r@	.	1r@	.	1r@	.	(<2d/	1r	.
.	.	.	.	.	.	.	.	8D/)	.	.
.	.	.	.	.	.	.	.	8r	.	.
.	.	.	.	.	.	.	.	4r	.	.
*	*	*	*	*	*	*	*	*v	*v	*
=149	=149	=149	=149	=149	=149	=149	=149	=149	=149
1r	.	1r	.	1r	.	1r	.	1r	.
=150	=150	=150	=150	=150	=150	=150	=150	=150	=150
1r	.	1r	.	1r	.	1r	.	1r	.
=151	=151	=151	=151	=151	=151	=151	=151	=151	=151
1r	.	1r	.	1r	.	1r	.	1r	.
=152	=152	=152	=152	=152	=152	=152	=152	=152	=152
1ryy	.	1ryy	.	1ryy	.	1ryy	.	4r	pp
.	.	.	.	.	.	.	.	8.C/L 8.c	.
.	.	.	.	.	.	.	.	16C/Jk 16c	.
.	.	.	.	.	.	.	.	[<2C/ [>2c	.
=153	=153	=153	=153	=153	=153	=153	=153	=153	=153
1ryy	.	1ryy	.	1ryy	.	1ryy	.	4C/] 4c]	.
.	.	.	.	.	.	.	.	8.C/L 8.c	.
.	.	.	.	.	.	.	.	16C/Jk 16c	.
.	.	.	.	.	.	.	.	[<2C/ [>2c	.
=154	=154	=154	=154	=154	=154	=154	=154	=154	=154
!LO:TX:a:t=ralent:color=blue:rj	!	!	!	!	!	!	!	!LO:TX:b:t=ralent.:rj	!
1ryy	.	1ryy	.	1ryy	.	1ryy	.	8C/] 8c]	.
.	.	.	.	.	.	.	.	8r	.
!	!	!	!	!	!	!	!	!	!LO:DY:a:rj
.	.	.	.	.	.	.	.	8.E/L 8.e	pp
.	.	.	.	.	.	.	.	16E/Jk 16e	.
.	.	.	.	.	.	.	.	[<2E/ [>2e	.
=155	=155	=155	=155	=155	=155	=155	=155	=155	=155
*	*	*	*	*	*	*	*	*^	*
1r@	.	1r@	.	1r@	.	1r@	.	4E/] 4e]	4ryy	.
.	.	.	.	.	.	.	.	4r	8.E\L	.
.	.	.	.	.	.	.	.	.	16E\Jk	.
.	.	.	.	.	.	.	.	2r	2E\	.
*	*	*	*	*	*	*	*	*v	*v	*
!!LO:PB:g=original
=156	=156	=156	=156	=156	=156	=156	=156	=156	=156
!LO:TX:a:t=4	!	!LO:TX:a:t=4	!	!LO:TX:a:t=4	!	!LO:TX:a:t=4	!	!LO:TX:a:t=a tempo 1mo	!
1r	.	1r	.	1r	.	1r	.	1r	.
=157	=157	=157	=157	=157	=157	=157	=157	=157	=157
1r	.	1r	.	1r	.	1r	.	1r	.
=158	=158	=158	=158	=158	=158	=158	=158	=158	=158
1r	.	1r	.	1r	.	1r	.	1r	.
=159	=159	=159	=159	=159	=159	=159	=159	=159	=159
1r	.	1r	.	1r	.	1r	.	1r	.
=160	=160	=160	=160	=160	=160	=160	=160	=160	=160
*	*	*	*	*	*	*	*	*^	*
!	!	!LO:TX:b:t=pag 1.:color=blue	!	!	!	!	!	!	!	!
!LO:TX:a:t=a:rj:color=red	!	!LO:TX:a:t=Come sopra\nA=B	!	!	!	!	!	!LO:TX:b:t=a=:color=red:rj	!	!
1ryy	.	1r@yy	.	1r@yy	.	1ryy	.	4ryy	1rGyy	p y
.	.	.	.	.	.	.	.	[<4E^</yy	.	.
.	.	.	.	.	.	.	.	8E/]yy	.	.
.	.	.	.	.	.	.	.	8ryy	.	.
.	.	.	.	.	.	.	.	4ryy	.	.
=161	=161	=161	=161	=161	=161	=161	=161	=161	=161	=161
1ryy	.	1ryy	.	1ryy	.	1ryy	.	4ryy	1rcyy	p y
.	.	.	.	.	.	.	.	[<4e^</yy	.	.
.	.	.	.	.	.	.	.	8e/]yy	.	.
.	.	.	.	.	.	.	.	8ryy	.	.
.	.	.	.	.	.	.	.	4ryy	.	.
=162	=162	=162	=162	=162	=162	=162	=162	=162	=162	=162
1ryy	.	1ryy	.	1ryy	.	1ryy	.	4ryy	1rAyy	.
.	.	.	.	.	.	.	.	[<4G^</yy	.	.
.	.	.	.	.	.	.	.	8G/]yy	.	.
.	.	.	.	.	.	.	.	8ryy	.	.
.	.	.	.	.	.	.	.	4ryy	.	.
=163	=163	=163	=163	=163	=163	=163	=163	=163	=163	=163
1ryy	.	1ryy	.	1ryy	.	1ryy	.	4ryy	1reyy	.
.	.	.	.	.	.	.	.	[<4g^</yy	.	.
.	.	.	.	.	.	.	.	8g/]yy	.	.
.	.	.	.	.	.	.	.	8ryy	.	.
.	.	.	.	.	.	.	.	4ryy	.	.
*	*	*	*	*	*	*	*	*v	*v	*
=164	=164	=164	=164	=164	=164	=164	=164	=164	=164
1r	.	1r	.	1r	.	1r	.	1r	.
=165	=165	=165	=165	=165	=165	=165	=165	=165	=165
1r	.	1r	.	1r	.	1r	.	1r	.
=166	=166	=166	=166	=166	=166	=166	=166	=166	=166
*	*	*	*	*	*	*	*	*^	*
!	!	!	!	!	!	!	!	!	!LO:TX:t=P:problem:decrescendopomiędzy nutami na pięciolinii	!LO:DY:rj
1r@yy	.	1r@yy	.	1r@yy	.	1r@yy	.	[>2a/yy	[<2A\yy	sf > y
.	.	.	.	.	.	.	.	8a/]yy	8A\]yy	]
.	.	.	.	.	.	.	.	8ryy	8ryy	.
.	.	.	.	.	.	.	.	4ryy	4ryy	.
*	*	*	*	*	*	*	*	*v	*v	*
=167	=167	=167	=167	=167	=167	=167	=167	=167	=167
1ryy	.	1ryy	.	1ryy	.	1ryy	.	1r	.
=168	=168	=168	=168	=168	=168	=168	=168	=168	=168
*	*	*	*	*	*	*	*	*^	*
!	!	!	!	!	!	!	!	!	!	!LO:DY:rj
1ryy	.	1ryy	.	1ryy	.	1ryy	.	[>2a/yy	[<2A\yy	sf > y
.	.	.	.	.	.	.	.	8a/]yy	8A\]yy	]
.	.	.	.	.	.	.	.	8ryy	8ryy	.
.	.	.	.	.	.	.	.	4ryy	4ryy	.
*	*	*	*	*	*	*	*	*v	*v	*
=169	=169	=169	=169	=169	=169	=169	=169	=169	=169
1ryy	.	1ryy	.	1ryy	.	1ryy	.	1ryy	.
=170	=170	=170	=170	=170	=170	=170	=170	=170	=170
1ryy	.	1ryy	.	1ryy	.	1ryy	.	1ryy	.
=171	=171	=171	=171	=171	=171	=171	=171	=171	=171
1ryy	.	1ryy	.	1ryy	.	1ryy	.	1ryy	.
=172	=172	=172	=172	=172	=172	=172	=172	=172	=172
*	*	*	*	*^	*	*	*	*	*
!	!	!	!	!	!	!LO:DY:rj	!	!	!	!
1ryy	.	1ryy	.	8.a/Lyy	1ryy	mf y	4.d\yy 4.fyy	sf > y	4.A/yy 4.ayy	sf > y
.	.	.	.	16a/Jkyy	.	.	.	.	.	.
.	.	.	.	8a/yy	.	.	.	.	.	.
.	.	.	.	8ryy	.	.	8ryy	]	8ryy	]
.	.	.	.	2ryy	.	.	2ryy	.	2ryy	.
=173	=173	=173	=173	=173	=173	=173	=173	=173	=173	=173
1ryy	.	1ryy	.	8.a/Lyy	1ryy	.	4.c/yy 4.eyy	sf > y	4.A/yy 4.ayy	sf y >
.	.	.	.	16a/Jkyy	.	.	.	.	.	.
.	.	.	.	8a/yy	.	.	.	.	.	.
.	.	.	.	8ryy	.	.	8ryy	]	8ryy	]
.	.	.	.	2ryy	.	.	2ryy	.	2ryy	.
*	*	*	*	*v	*v	*	*	*	*	*
=174	=174	=174	=174	=174	=174	=174	=174	=174	=174
!LO:TX:a::B:t=4	!	!LO:TX:B:a:t=4	!	!LO:TX:B:a:t=4	!	!LO:TX:a:B:t=4	!	!LO:TX:b:B:t=4	!
1ryy	.	1ryy	.	1ryy	.	1ryy	.	1ryy	.
=175	=175	=175	=175	=175	=175	=175	=175	=175	=175
1ryy	.	1ryy	.	1ryy	.	1ryy	.	1ryy	.
=176	=176	=176	=176	=176	=176	=176	=176	=176	=176
1ryy	.	1ryy	.	1ryy	.	1ryy	.	1ryy	.
=177	=177	=177	=177	=177	=177	=177	=177	=177	=177
1ryy	.	1ryy	.	1ryy	.	1ryy	.	1ryy	.
=178	=178	=178	=178	=178	=178	=178	=178	=178	=178
1ryy	.	1ryy	.	1ryy	.	1ryy	.	1ryy	.
=179	=179	=179	=179	=179	=179	=179	=179	=179	=179
*	*	*	*	*	*	*^	*	*^	*
*	*	*	*	*	*	*	*	*	*	*2\right	*
!	!	!	!	!	!	!	!	!	!	!	!LO:DY:rj
1ryy	.	1ryy	.	1ryy	.	1ryy	4ryy	p y	(>2a^</yy	2A\yy	mf y
.	.	.	.	.	.	.	2E\^>yy	.	.	.	.
.	.	.	.	.	.	.	.	.	8e/)yy	8e\yy	.
.	.	.	.	.	.	.	.	.	8ryy	8ryy	.
!	!	!	!	!	!	!	!	!LO:HP:i:t=crescendo	!	!	!
.	.	.	.	.	.	.	[<4E\^>yy	>	4ryy	4ryy	.
=180	=180	=180	=180	=180	=180	=180	=180	=180	=180	=180	=180
1ryy	.	1ryy	.	1ryy	.	4ryy	4E\]yy	.	2ryy	2ryy	.
.	.	.	.	.	.	2e^>/yy	2E\yy	.	.	.	.
.	.	.	.	.	.	.	.	.	4ryy	4ryy	.
.	.	.	.	.	.	[>4e^</yy	[<4E\yy	.	8.ryy	8.ryy	.
.	.	.	.	.	.	.	.	.	16e/yy	16e\yy	.
*	*	*	*	*	*	*v	*v	*	*	*	*
=181	=181	=181	=181	=181	=181	=181	=181	=181	=181	=181
1ryy	.	1ryy	.	1ryy	.	4E/]yy 4e]yy	.	4e^^>/yy	4e\yy	.
.	.	.	.	.	.	4E^^>/yy 4eyy	.	4e^^>/yy	4e\yy	.
.	.	.	.	.	.	4E^^>/yy 4eyy	.	4f#X^^>/yy	4e\yy	.
.	.	.	.	.	.	4E^^>/yy 4eyy	.	4g#X^^>/yy	4d\yy	.
*	*	*	*	*	*	*	*	*v	*v	*
=182||	=182||	=182||	=182||	=182||	=182||	=182||	=182||	=182||	=182||
*^	*	*	*	*	*	*	*	*	*
!	!	!	!	!	!LO:ART:color=blue	!	!LO:ART:color=blue	!	!LO:ART:color=blue	!
!LO:ART:color=blue	!	!LO:DY:rj	!LO:ART:color=blue	!LO:DY:rj	!	!LO:DY:rj	!LO:TX:a:t=Col 1m e 2o	!LO:DY:rj	!LO:TX:a:t=a:color=red:rj	!LO:DY:rj
2A^</yy	[<2AA\yy	ff y	2A^>\yy 2cyy	ff y	2a^>\yy 2ccyy	ff y	2A^</yy 2ayy	ff y	2A^</yy 2ayy	ff y
!LO:ART:color=blue	!	!	!LO:ART:color=blue	!	!LO:ART:color=blue	!	!LO:ART:color=blue	!	!LO:ART:color=blue	!
4A^</yy	8AA\]yy	.	2B^>\yy 2dyy	.	2b^>\yy 2ddyy	.	4.A^</yy 4.ayy	.	4.A^</yy 4.ayy	.
.	8ryy	.	.	.	.	.	.	.	.	.
8ryy	4ryy	.	.	.	.	.	.	.	.	.
8A/yy	.	.	.	.	.	.	8A/yy 8ayy	.	8A/yy 8ayy	.
=183	=183	=183	=183	=183	=183	=183	=183	=183	=183	=183
*rep	*rep	*	*	*	*	*	*	*	*rep	*
!LO:ART:color=blue	!	!	!LO:ART:color=blue	!	!LO:ART:color=blue	!	!	!	!LO:ART:color=blue	!
2A^</yy	[<2AA\yy	.	2cn^>\yy 2e-Xyy	.	2cc^>\yy 2ee-Xyy	.	2A^</yy 2ayy	.	2A^</yy 2ayy	.
!LO:ART:color=blue	!	!	!LO:ART:color=blue	!	!LO:ART:color=blue	!	!	!	!LO:ART:color=blue	!
4A^</yy	8AA\]yy	.	2c#X^>\yy 2enyy	.	2cc#X^>\yy 2eenyy	.	4.A^</yy 4.ayy	.	4.A^</yy 4.ayy	.
.	8ryy	.	.	.	.	.	.	.	.	.
8ryy	4ryy	.	.	.	.	.	.	.	.	.
8A/yy	.	.	.	.	.	.	8A/yy 8ayy	.	8A/yy 8ayy	.
*Xrep	*Xrep	*	*	*	*	*	*	*	*Xrep	*
=184	=184	=184	=184	=184	=184	=184	=184	=184	=184	=184
*	*	*	*^	*	*^	*	*	*	*	*
!LO:ART:color=blue	!	!	!LO:ART:color=blue	!	!	!	!	!	!LO:ART:color=blue	!	!	!
2A^</yy	2AA\yy	.	4f^>/yy	4d\yy	.	4dd/yy	4dd\yy	.	4A^</yy 4ayy	.	4A/yy 4ayy	.
!	!	!	!LO:ART:color=blue	!	!	!	!	!	!	!	!	!
.	.	.	4f#X^>\yy	4d#X\yy	.	8.cc/Lyy	8.cc\Lyy	.	8.A/Lyy 8.ayy	.	8.A/Lyy 8.ayy	.
.	.	.	.	.	.	16b/Jkyy	16b\Jkyy	.	16A/Jkyy 16ayy	.	16A/Jkyy 16ayy	.
!	!	!	!LO:ART:color=blue	!	!	!	!	!	!	!	!	!
4A/yy	4AA\yy	.	4e^>/yy	4e\yy	.	4a/yy	4a\yy	.	4A/yy 4ayy	.	4A/yy 4ayy	.
!	!	!	!LO:ART:color=blue	!	!	!	!	!	!	!	!	!
4A/yy	4AA\yy	.	4fn^>/yy	4dn\yy	.	4b/yy	4ryy	.	4A/yy 4ayy	.	4A/yy 4ayy	.
=185	=185	=185	=185	=185	=185	=185	=185	=185	=185	=185	=185	=185
*	*	*	*	*	*	*	*	*	*^	*	*^	*
!LO:ART:color=blue	!	!	!	!	!	!	!	!	!	!	!	!	!	!
2A/^<yy	2AA\yy	.	(>2f#X^>/yy	(<2d#X\yy	.	(>2cc^>/yy	(<2a\yy	.	8A/yy	8A\yy	.	2c/yy 2ayy	2ryy	.
.	.	.	.	.	.	.	.	.	8ryy	8ryy	.	.	.	.
.	.	.	.	.	.	.	.	.	8A/yy	8A\yy	.	.	.	.
.	.	.	.	.	.	.	.	.	8ryy	8ryy	.	.	.	.
4EE/yy 4Eyy	4ryy	.	4e\))yy 4g#Xyy	4ryy	.	4b/)yy	4e\)yy	.	4E/yy 4eyy	4ryy	.	4g#X/yy	4e\yy	.
4ryy	4ryy	.	4ryy	4ryy	.	4ryy	4ryy	.	4ryy	4ryy	.	4ryy	4ryy	.
*v	*v	*	*	*	*	*	*	*	*	*	*	*v	*v	*
*	*	*v	*v	*	*	*	*	*	*	*	*	*
=186	=186	=186	=186	=186	=186	=186	=186	=186	=186	=186	=186
!	!	!	!	!	!LO:ART:color=blue	!	!LO:ART:color=blue	!	!	!	!
1ryy	.	1ryy	.	4a/yy	4c^<\yy	.	4A^>/yy	4A\yy	.	4ryy	.
.	.	.	.	8.g#X/Lyy	8.e\Lyy	.	4ryy	4ryy	.	4E^</yy 4eyy	.
.	.	.	.	16a/Jkyy	16e\Jkyy	.	.	.	.	.	.
!	!	!	!	!	!	!	!LO:ART:color=blue	!	!	!	!
.	.	.	.	4.b/yy	4.e\yy	.	4E^>/yy	4E\yy	.	4ryy	.
.	.	.	.	.	.	.	4ryy	4ryy	.	4E^</yy 4eyy	.
.	.	.	.	8ryy	8ryy	.	.	.	.	.	.
*	*	*	*	*v	*v	*	*	*	*	*	*
=187	=187	=187	=187	=187	=187	=187	=187	=187	=187	=187
*	*	*	*	*	*	*rep	*rep	*	*rep	*
!	!	!	!	!LO:ART:color=blue	!	!	!	!	!	!
1ryy	.	1ryy	.	4a^</yy 4ccyy	.	4A^>/yyy	4A\yy	.	4ryy	.
.	.	.	.	8.e/Lyy 8.byy	.	4ryy	4ryy	.	4E^</yy 4eyy	.
.	.	.	.	16c/Jkyy 16ayy	.	.	.	.	.	.
.	.	.	.	4.e/yy 4.byy	.	4E^>/yy	4E\yy	.	4ryy	.
.	.	.	.	.	.	4ryy	4ryy	.	4E^</yy 4eyy	.
.	.	.	.	8ryy	.	.	.	.	.	.
*	*	*	*	*	*	*Xrep	*Xrep	*	*Xrep	*
=188	=188	=188	=188	=188	=188	=188	=188	=188	=188	=188
!	!	!	!	!LO:ART:color=blue	!	!LO:ART:color=blue	!	!	!	!
1ryy	.	1ryy	.	4a^>\yy 4ccyy	.	4A^>/yy	4A\yy	.	4ryy	.
!	!	!	!	!	!	!	!	!	!LO:ART:color=blue	!
.	.	.	.	8.e/Lyy 8.byy	.	4ryy	4ryy	.	4E^</yy 4eyy	.
.	.	.	.	16a/Jkyy 16ccyy	.	.	.	.	.	.
!	!	!	!	!	!	!LO:ART:color=blue	!	!	!	!
.	.	.	.	4.b\yy 4.ddyy	.	4G^>/yy	4G\yy	.	4ryy	.
!	!	!	!	!	!	!	!	!	!LO:ART:color=blue	!
.	.	.	.	.	.	4ryy	4ryy	.	4G^<yy/ 4gyy	.
!	!	!	!	!LO:TX:b:t==B:color=red	!	!	!	!	!LO:TX:t=P:problem:czerwona kreska zamykająca część	!
.	.	.	.	8ryy	.	.	.	.	.	.
*	*	*	*	*	*	*v	*v	*	*	*
=189	=189	=189	=189	=189	=189	=189	=189	=189	=189
*	*	*	*	*^	*	*	*	*^	*
1r	.	1r	.	4r	4a\	.	1r	.	4r	4ryy	.
!	!	!	!	!LO:TX:a:t=a	!	!	!	!	!	!	!
.	.	.	.	8.a/L	8.c\L	.	.	.	4A/ 4e	4A\	.
!	!	!	!	!LO:TX:a:t=a	!	!	!	!	!	!	!
.	.	.	.	16a/Jk	16e\Jk	.	.	.	.	.	.
.	.	.	.	8b/L	8d#X\	.	.	.	4BX/	4BX\	.
.	.	.	.	16r	8r	.	.	.	.	.	.
.	.	.	.	16b/K	.	.	.	.	.	.	.
!	!	!	!	!	!	!	!	!	!LO:TX:t=P:problem:niebieska kreska taktowa	!	!
.	.	.	.	8.b/	4r	.	.	.	4r	4ryy	.
.	.	.	.	16b/Jk	.	.	.	.	.	.	.
=190	=190	=190	=190	=190	=190	=190	=190	=190	=190	=190	=190
*^	*	*^	*	*	*	*	*^	*	*	*	*
!	!	!LO:DY:rj	!	!	!LO:DY:rj	!	!	!LO:DY:rj	!	!	!LO:DY:rj	!LO:TX:a:t=I:color=red	!	!LO:DY:rj
2E^>/	2EE\	ff	2B^>/	2B\	ff	2gg^>/	2ee\	ff	2g^>/	2e\	ff	2g^>/	2e\	ff
4D#X^>/	4DD#X\	.	4B^>/	4B\	.	4ff#X^>/	4b\	.	4f#X^>/	4BX\	.	4f#X^>/	4BX\	.
4Dn^>/	4DDn\	.	4B^>\ 4g	4ryy	.	4ffn^>/	4dd\	.	4f^>/	4d\	.	4f^>/	4d\	.
=191	=191	=191	=191	=191	=191	=191	=191	=191	=191	=191	=191	=191	=191	=191
2C^>/	4CC\	.	2c^>/	2c\	.	2ee^>/	2g\	.	2e^>/	2c\	.	2e^>/	2c\	.
.	4r	.	.	.	.	.	.	.	.	.	.	.	.	.
4BB^>/	2r	.	4B^>/	4B\	.	4e^>/ 4ee	4ryy	.	4e^>/	4d\	.	4d^>/	4e\	.
4BB-X^>/	.	.	4B-X^>/	4B-\	.	4e^>\ 4ee\	4ryy	.	4e^>/	4d\	.	4e^>/	4d\	.
*v	*v	*	*	*	*	*	*	*	*	*	*	*	*	*
=192	=192	=192	=192	=192	=192	=192	=192	=192	=192	=192	=192	=192	=192
!	!	!	!	!	!	!	!	!	!	!LO:DY:a	!	!	!
8AA/	.	8A/	8A\	.	8a/	8a\	.	1A	8A\	fpp	8e/	8A\	.
8r	.	8r	8ryy	.	8r	8ryy	.	.	8r	.	8r	8ryy	.
4r	.	4r	4ryy	.	4r	4ryy	.	.	4r	.	4r	4ryy	.
2r	.	2r	2ryy	.	2r	2ryy	.	.	2r	.	2r	2ryy	.
*	*	*v	*v	*	*	*	*	*	*	*	*	*	*
*	*	*	*	*v	*v	*	*	*	*	*	*	*
!!LO:LB:g=original
=193	=193	=193	=193	=193	=193	=193	=193	=193	=193	=193	=193
1r	.	1r	.	1r	.	(>2d/	1r	.	1r	1r	.
.	.	.	.	.	.	8A/)	.	.	.	.	.
.	.	.	.	.	.	8r	.	.	.	.	.
.	.	.	.	.	.	4r	.	.	.	.	.
=194	=194	=194	=194	=194	=194	=194	=194	=194	=194	=194	=194
*	*	*^	*	*^	*	*	*	*	*	*	*
!	!	!	!	!	!LO:ART:color=blue	!	!	!	!	!	!	!	!
!	!LO:DY:rj:color=blue	!LO:ART:color=blue	!	!LO:DY:rj:color=blue	!	!	!LO:DY:rj:color=blue	!	!	!LO:DY:rj:color=blue	!	!	!LO:DY:rj:color=blue
2D^>\ 2d	ff	2f^</	2A\	ff	2dd^>\ 2ff	2ryy	ff	2f^>/	2A\	ff	2a^</	2F\	ff
!	!	!LO:ART:color=blue	!	!	!LO:ART:color=blue	!	!	!	!	!	!	!	!
4C#X^>\ 4c#X	.	4e^</	4A\	.	4ee^>/	4a\	.	4e^>/	4A\	.	4a^</	4A\	.
!	!	!LO:ART:color=blue	!	!	!LO:ART:color=blue	!	!	!	!	!	!	!	!
4Cn^>\ 4cn	.	4e-X^</	4A\	.	4ee-X^>/	4cc\	.	4e-X^>/	4c\	.	4a^</	4c\	.
=195	=195	=195	=195	=195	=195	=195	=195	=195	=195	=195	=195	=195	=195
!	!	!LO:ART:color=blue	!LO:ACC:color=blue	!	!LO:ART:color=blue	!	!	!LO:ART:color=blue	!	!	!	!	!
2BB-X^>\ 2B-X	.	2d^>/	2B-X\	.	2dd^>/	2dd\	.	2d^>/	2B-\	.	2b-/	2f\	.
!	!	!LO:ART:color=blue	!	!	!LO:ART:color=blue	!	!	!LO:ART:color=blue	!	!	!	!	!
4AA^>\ 4A	.	4D^</ 4d	4ryy	.	4dd^>/	4dd\	.	4F^>/ 4f	4ryy	.	4d^>/	4c\	.
!	!	!LO:ART:color=blue	!	!	!LO:ART:color=blue	!	!	!LO:ART:color=blue	!	!	!	!	!
4AA-X^>\ 4A-X	.	4D^</ 4d	4ryy	.	4dd^>/	4dd\	.	4F^>/ 4f	4ryy	.	4d^>/	4c\	.
*	*	*	*	*	*	*	*	*v	*v	*	*	*	*
=196	=196	=196	=196	=196	=196	=196	=196	=196	=196	=196	=196	=196
8GG\ 8G\	.	8G/	8G\	.	8g/	8g\	.	8G/ 8g	.	1g	8G\	fpp
8r	.	8r	8ryy	.	8r	8ryy	.	8r	.	.	8r	.
4r	.	4r	4ryy	.	4r	4ryy	.	4r	.	.	4r	.
2r	.	2r	2ryy	.	2r	2ryy	.	2r	.	.	2r	.
*	*	*v	*v	*	*	*	*	*	*	*	*	*
*	*	*	*	*v	*v	*	*	*	*	*	*
=197	=197	=197	=197	=197	=197	=197	=197	=197	=197	=197
1r	.	1r	.	1r	.	1r	.	(>2c/	1r	.
.	.	.	.	.	.	.	.	8G/)	.	.
.	.	.	.	.	.	.	.	8r	.	.
.	.	.	.	.	.	.	.	4r	.	.
*	*	*	*	*	*	*	*	*v	*v	*
=198	=198	=198	=198	=198	=198	=198	=198	=198	=198
*	*	*	*	*	*	*^	*	*	*
!	!	!	!	!	!	!	!	!LO:DY:rj	!	!
1r	.	1r	.	1r	.	[>1g	1r	pp	1r	.
*	*	*	*	*	*	*v	*v	*	*	*
=199	=199	=199	=199	=199	=199	=199	=199	=199	=199
1r	.	1r	.	1r	.	1g]	.	1r	.
!!LO:LB:g=original
=200	=200	=200	=200	=200	=200	=200	=200	=200	=200
*	*	*	*	*	*	*	*	*^	*
1r	.	1r	.	1r	.	1c	.	2r	1r	.
.	.	.	.	.	.	.	.	4r	.	.
!	!	!	!	!	!	!	!	!	!	!LO:DY:rj
.	.	.	.	.	.	.	.	4g/	.	p
=201	=201	=201	=201	=201	=201	=201	=201	=201	=201	=201
1ryy	.	1ryy	.	1ryy	.	[<2G/	.	(>2a/	1r	.
.	.	.	.	.	.	8G/]	.	8g/)	.	.
.	.	.	.	.	.	8r	.	8r	.	.
.	.	.	.	.	.	4r	.	4r	.	.
*	*	*	*	*	*	*	*	*v	*v	*
=202	=202	=202	=202	=202	=202	=202	=202	=202	=202
1ryy	.	1ryy	.	1ryy	.	1g	.	1r@	.
=203	=203	=203	=203	=203	=203	=203	=203	=203	=203
1ryy	.	1ryy	.	1ryy	.	(<2c/	.	1r@	.
.	.	.	.	.	.	2d/)	.	.	.
=204	=204	=204	=204	=204	=204	=204	=204	=204	=204
!	!	!	!	!	!	!	!LO:DY:rj	!	!
1r	.	1ryy	.	1ryy	.	2.C/ 2.c	fp	1r	.
.	.	.	.	.	.	4r	.	.	.
=205	=205	=205	=205	=205	=205	=205	=205	=205	=205
*^	*	*	*	*	*	*	*	*	*
!LO:TX:a:t=Solo	!	!LO:DY:rj	!	!	!	!	!	!	!	!LO:DY:rj
2.FF/	1r	fp	1ryy	.	1ryy	.	1r	.	8d\L 8f	p
.	.	.	.	.	.	.	.	.	16r	.
.	.	.	.	.	.	.	.	.	16d\Jk 16f	.
.	.	.	.	.	.	.	.	.	2d^^>\ 2f	.
4r	.	.	.	.	.	.	.	.	4r	.
*v	*v	*	*	*	*	*	*	*	*	*
=206	=206	=206	=206	=206	=206	=206	=206	=206	=206
!	!	!	!	!	!	!	!LO:DY:rj	!	!LO:DY:rj
1r	.	1ryy	.	1ryy	.	2.C/ 2.c	fp	2.D/ 2.d	fp
.	.	.	.	.	.	4r	.	4r	.
=207	=207	=207	=207	=207	=207	=207	=207	=207	=207
*^	*	*	*	*	*	*	*	*	*
!	!	!LO:DY:a	!	!	!	!	!	!	!	!
2.FF/	1r	fp	1r	.	1r	.	1r	.	8d\L 8f	.
.	.	.	.	.	.	.	.	.	16r	.
.	.	.	.	.	.	.	.	.	16d\Jk 16f	.
.	.	.	.	.	.	.	.	.	2d^^>\ 2f	.
4r	.	.	.	.	.	.	.	.	4r	.
*v	*v	*	*	*	*	*	*	*	*	*
!!LO:PB:g=original
=208	=208	=208	=208	=208	=208	=208	=208	=208	=208
1r@	.	1r@	.	1r@	.	1r	.	8d\L 8f	.
.	.	.	.	.	.	.	.	16r	.
.	.	.	.	.	.	.	.	16d\Jk 16f	.
.	.	.	.	.	.	.	.	2d\ 2f	.
.	.	.	.	.	.	.	.	4d\ 4f	.
=209	=209	=209	=209	=209	=209	=209	=209	=209	=209
*	*	*	*	*	*	*	*	*rep	*
1r@	.	1r@	.	1r@	.	1r	.	8d\L 8f	.
.	.	.	.	.	.	.	.	16r	.
.	.	.	.	.	.	.	.	16d\Jk 16f	.
.	.	.	.	.	.	.	.	2d\ 2f	.
.	.	.	.	.	.	.	.	4d\ 4f	.
*	*	*	*	*	*	*	*	*Xrep	*
=210	=210	=210	=210	=210	=210	=210	=210	=210	=210
*	*	*	*	*	*	*	*	*rep	*
1r@	.	1r@	.	1r@	.	1r@	.	8d\L 8f	.
.	.	.	.	.	.	.	.	16r	.
.	.	.	.	.	.	.	.	16d\Jk 16f	.
.	.	.	.	.	.	.	.	2d\ 2f	.
.	.	.	.	.	.	.	.	4d\ 4f	.
*	*	*	*	*	*	*	*	*Xrep	*
=211	=211	=211	=211	=211	=211	=211	=211	=211	=211
*	*	*	*	*	*	*	*	*^	*
1r@	.	1r@	.	1r@	.	1r	.	[>1g	1re@	.
=212	=212	=212	=212	=212	=212	=212	=212	=212	=212	=212
1r	.	1r	.	1r	.	1r	.	4g/]	1re@	.
.	.	.	.	.	.	.	.	2f/	.	.
!	!	!	!	!	!	!	!	!LO:TX:t=P:problem:niebieska linia oddzielająca części	!	!
.	.	.	.	.	.	.	.	4f#X/	.	.
*	*	*	*	*	*	*	*	*v	*v	*
=213||	=213||	=213||	=213||	=213||	=213||	=213||	=213||	=213||	=213||
*^	*	*^	*	*^	*	*	*	*	*
!	!	!LO:DY:rj	!	!	!LO:DY:rj	!	!	!LO:DY:rj	!LO:TX:a:t=Col 1 e 2.	!LO:DY:rj	!LO:TX:a:t=O:color=red	!LO:DY:rj
2GG/ 2G	2ryy	ff	2B\ 2d	2ryy	ff	2b\ 2dd	2ryy	ff	(<2G/yy 2gyy	ff y	(<2G/ 2g	ff
4GG/	4GG\	.	4c/	4c\	.	4cc/	4cc\	.	4A-X/yy 4a-Xyy	.	4A-X/ 4a-X	.
4GG/	4GG\	.	4c/	4c\	.	4cc/	4cc\	.	4A/yy 4ayy	.	4A/ 4a	.
=214	=214	=214	=214	=214	=214	=214	=214	=214	=214	=214	=214	=214
*rep	*rep	*	*	*	*	*	*	*	*	*	*	*
2GG/ 2G	2ryy	.	2e-X/	2c\	.	2ee-X/	2ee-\	.	2B-/yy 2b-yy	.	2B-/ 2b-	.
4GG/	4GG\	.	4c/	4c\	.	4cc/	4cc\	.	4A/yy 4ayy	.	4A/ 4a	.
4GG/	4GG\	.	4r	4ryy	.	4r	4ryy	.	4A-X/)yy 4a-Xyy	.	4A-X/) 4a-X	.
*Xrep	*Xrep	*	*	*	*	*	*	*	*	*	*	*
=215	=215	=215	=215	=215	=215	=215	=215	=215	=215	=215	=215	=215
*rep	*rep	*	*rep	*rep	*	*rep	*rep	*	*	*	*	*
2GG/ 2G	2ryy	.	2B\ 2d	2ryy	.	2b\ 2dd	2ryy	.	(<2G/yy 2gyy	.	(<2G/ 2g	.
4GG/	4GG\	.	4c/	4c\	.	4cc/	4cc\	.	4A-X/yy 4a-Xyy	.	4A-X/ 4a-X	.
4GG/	4GG\	.	4c/	4c\	.	4cc/	4cc\	.	4A/yy 4ayy	.	4A/ 4a	.
*Xrep	*Xrep	*	*Xrep	*Xrep	*	*Xrep	*Xrep	*	*	*	*	*
=216	=216	=216	=216	=216	=216	=216	=216	=216	=216	=216	=216	=216
*rep	*rep	*	*rep	*rep	*	*rep	*rep	*	*	*	*	*
2GG/ 2G	2ryy	.	2e-X/	2c\	.	2ee-X/	2ee-\	.	2B-/yy 2b-yy	.	2B-/ 2b-	.
4GG/	4GG\	.	4c/	4c\	.	4cc/	4cc\	.	4A/yy 4ayy	.	4A/ 4a	.
4GG/	4GG\	.	4r	4ryy	.	4r	4ryy	.	4A-X/)yy 4a-Xyy	.	4A-X/) 4a-X	.
*Xrep	*Xrep	*	*Xrep	*Xrep	*	*Xrep	*Xrep	*	*	*	*	*
*	*	*	*	*	*	*v	*v	*	*	*	*	*
!!LO:LB:g=original
=217	=217	=217	=217	=217	=217	=217	=217	=217	=217	=217	=217
8GG/	8GG\	.	4r	4ryy	.	4r	.	8G/yy 8g/yy	.	8G/ 8g	.
8r	8ryy	.	.	.	.	.	.	8ryy	.	8r	.
!	!	!	!LO:ART:color=blue	!	!	!	!	!	!	!	!
4G^</	4GG\	.	2B/^<	2D\	.	4b\ 4dd	sf	2G/yy 2g/yy	.	2G/ 2g	.
2r	2ryy	.	.	.	.	2r	.	.	.	.	.
.	.	.	4c/	4E-X\	.	.	.	4G/yy 4g/yy	.	4G/ 4g	.
*v	*v	*	*	*	*	*	*	*	*	*	*
*	*	*v	*v	*	*	*	*	*	*	*
=218	=218	=218	=218	=218	=218	=218	=218	=218	=218
1r	.	4G\ 4d	.	1r	.	4G/yy 4g/yy	.	4G/ 4g/	.
*	*	*	*	*	*	*	*	*rep	*
.	.	4G\ 4e-X	.	.	.	4G/yy 4g/yy	.	4G/ 4g/	.
*	*	*	*	*	*	*	*	*Xrep	*
*	*	*	*	*	*	*	*	*rep	*
.	.	4B\ 4d	.	.	.	4G/yy 4g/yy	.	4G/ 4g/	.
*	*	*	*	*	*	*	*	*Xrep	*
*	*	*	*	*	*	*	*	*rep	*
.	.	4c\ 4e-X	.	.	.	4G/yy 4g/yy	.	4G/ 4g/	.
*	*	*	*	*	*	*	*	*Xrep	*
=219	=219	=219	=219	=219	=219	=219	=219	=219	=219
1r	.	8B\ 8d	.	1r	.	8G/yy 8g/yy	.	8G/ 8g/	.
.	.	8r	.	.	.	8ryy	.	8r	.
.	.	4B^>\ 4d	.	.	.	2G/yy 2g/yy	.	2G/ 2g/	.
.	.	2r	.	.	.	.	.	.	.
.	.	.	.	.	.	4G/yy 4g/yy	.	4G/ 4g/	.
=220	=220	=220	=220	=220	=220	=220	=220	=220	=220
*	*	*	*	*	*	*^	*	*^	*
1r	.	1r	.	1r	.	4G/yy 4gyy	4ryy	.	4G/ 4g	4ryy	.
.	.	.	.	.	.	4ryy	4G\yy	.	4r	4G\	.
.	.	.	.	.	.	2ryy	4G\yy	.	2r	4G\	.
.	.	.	.	.	.	.	4G\yy	.	.	4G\	.
=221||	=221||	=221||	=221||	=221||	=221||	=221||	=221||	=221||	=221||	=221||	=221||
!	!	!	!	!	!	!	!	!	!LO:TX:b:t=meno moſso.	!	!
4r	.	4r	.	4r	.	4r	8G\	.	4r	8G\	.
.	.	.	.	.	.	.	8r	.	.	8r	.
8GG/ 8G	sf	8B\ 8d	sf	8g\ 8dd	sf	8G/ 8g	8ryy	sf	8G/ 8g	8ryy	sf
8r	.	8r	.	8r	.	8r	8ryy	.	8r	8ryy	.
2r	.	2r	.	2r	.	2r	2ryy	.	2r	2ryy	.
*	*	*	*	*	*	*v	*v	*	*	*	*
*	*	*	*	*	*	*	*	*v	*v	*
=222	=222	=222	=222	=222	=222	=222	=222	=222	=222
1r	.	1r	.	1r	.	1r	.	1r	.
=223	=223	=223	=223	=223	=223	=223	=223	=223	=223
1r	.	1r	.	1r	.	1r	.	1r	.
=224	=224	=224	=224	=224	=224	=224	=224	=224	=224
1r	.	1r	.	1r	.	1r	.	1r	.
=225	=225	=225	=225	=225	=225	=225	=225	=225	=225
1r	.	1r	.	1r	.	1r	.	1r	.
=226	=226	=226	=226	=226	=226	=226	=226	=226	=226
1r	.	1r	.	1r	.	1r	.	1r	.
=227	=227	=227	=227	=227	=227	=227	=227	=227	=227
1r	.	1r	.	1r	.	1r	.	1r	.
=228	=228	=228	=228	=228	=228	=228	=228	=228	=228
1r	.	1r	.	1r	.	1r	.	1r	.
=229	=229	=229	=229	=229	=229	=229	=229	=229	=229
1r	.	1r	.	1r	.	1r	.	1r	.
=230	=230	=230	=230	=230	=230	=230	=230	=230	=230
1r	.	1r	.	1r	.	1r	.	1r	.
=231	=231	=231	=231	=231	=231	=231	=231	=231	=231
1r	.	1r	.	1r	.	1r	.	1r	.
=232	=232	=232	=232	=232	=232	=232	=232	=232	=232
1r	.	1r	.	1r	.	1r	.	1r	.
=233	=233	=233	=233	=233	=233	=233	=233	=233	=233
1r	.	1r	.	1r	.	1r	.	1r	.
!!LO:LB:g=original
!!linebreak:original
=234||	=234||	=234||	=234||	=234||	=234||	=234||	=234||	=234||	=234||
!	!	!	!	!	!	!	!	!LO:TX:a:t=a tempo 1m	!LO:DY:rj
1r	.	1r	.	1r	.	1r	.	[>1C [>1E	pp
=235	=235	=235	=235	=235	=235	=235	=235	=235	=235
*	*	*	*	*	*	*	*	*rep	*
1ryy	.	1ryy	.	1ryy	.	1ryy	.	1C_> 1E_>	.
*	*	*	*	*	*	*	*	*Xrep	*
=236	=236	=236	=236	=236	=236	=236	=236	=236	=236
*	*	*	*	*	*	*	*	*^	*
1ryy	.	1ryy	.	1ryy	.	1ryy	.	2.E/]	2.C\]	.
.	.	.	.	.	.	.	.	4G/	4r	.
=237	=237	=237	=237	=237	=237	=237	=237	=237	=237	=237
1ryy	.	1ryy	.	1ryy	.	1ryy	.	2.d/	1D	.
.	.	.	.	.	.	.	.	4G/	.	.
*	*	*	*	*	*	*	*	*v	*v	*
=238	=238	=238	=238	=238	=238	=238	=238	=238	=238
1ryy	.	1ryy	.	1ryy	.	1ryy	.	[<1D [>1G	.
=239	=239	=239	=239	=239	=239	=239	=239	=239	=239
*	*	*	*	*	*	*	*	*rep	*
1ryy	.	1ryy	.	1ryy	.	1ryy	.	1D_< 1G_>	.
*	*	*	*	*	*	*	*	*Xrep	*
=240	=240	=240	=240	=240	=240	=240	=240	=240	=240
*	*	*	*	*	*	*	*	*^	*
1ryy	.	1ryy	.	1ryy	.	1ryy	.	1G_>	4D\]	.
.	.	.	.	.	.	.	.	.	4r	.
.	.	.	.	.	.	.	.	.	2r	.
*	*	*	*	*	*	*	*	*v	*v	*
=241	=241	=241	=241	=241	=241	=241	=241	=241	=241
*	*	*	*	*	*	*^	*	*	*
1r	.	1r	.	1r	.	4r	1rA	pp	4G/]	.
.	.	.	.	.	.	8.F#X^</L	.	.	4r	.
.	.	.	.	.	.	16G/Jk	.	.	.	.
.	.	.	.	.	.	4G/	.	.	2r	.
.	.	.	.	.	.	4r	.	.	.	.
*	*	*	*	*	*	*v	*v	*	*	*
!!LO:PB:g=original
=242	=242	=242	=242	=242	=242	=242	=242	=242	=242
1r@	.	1r@	.	1r@	.	4r	.	4r	.
.	.	.	.	.	.	8.F#X^</L	.	8.c/L 8.e	.
.	.	.	.	.	.	16G/Jk	.	16c/Jk 16e	.
.	.	.	.	.	.	4G/	.	8c/ 8e	.
.	.	.	.	.	.	.	.	8r	.
.	.	.	.	.	.	4r	.	4r	.
=243	=243	=243	=243	=243	=243	=243	=243	=243	=243
*	*	*	*	*	*	*rep	*	*rep	*
1ryy	.	1ryy	.	1ryy	.	4r	.	4r	.
.	.	.	.	.	.	8.F#X^</L	.	8.c/L 8.e	.
.	.	.	.	.	.	16G/Jk	.	16c/Jk 16e	.
.	.	.	.	.	.	4G/	.	8c/ 8e	.
.	.	.	.	.	.	.	.	8r	.
.	.	.	.	.	.	4r	.	4r	.
*	*	*	*	*	*	*Xrep	*	*Xrep	*
=244	=244	=244	=244	=244	=244	=244	=244	=244	=244
*	*	*	*	*	*	*rep	*	*rep	*
1ryy	.	1ryy	.	1ryy	.	4r	.	4r	.
.	.	.	.	.	.	8.F#X^</L	.	8.c/L 8.e	.
.	.	.	.	.	.	16G/Jk	.	16c/Jk 16e	.
.	.	.	.	.	.	4G/	.	8c/ 8e	.
.	.	.	.	.	.	.	.	8r	.
.	.	.	.	.	.	4r	.	4r	.
*	*	*	*	*	*	*Xrep	*	*Xrep	*
=245	=245	=245	=245	=245	=245	=245	=245	=245	=245
*	*	*	*	*	*	*rep	*	*	*
1ryy	.	1ryy	.	1ryy	.	4r	.	4r	.
.	.	.	.	.	.	8.F#X^</L	.	8.G/L 8.d	.
.	.	.	.	.	.	16G/Jk	.	16G/Jk 16d	.
.	.	.	.	.	.	4G/	.	8G/ 8d	.
.	.	.	.	.	.	.	.	8r	.
.	.	.	.	.	.	4r	.	4r	.
*	*	*	*	*	*	*Xrep	*	*	*
=246	=246	=246	=246	=246	=246	=246	=246	=246	=246
*	*	*	*	*	*	*rep	*	*	*
1ryy	.	1ryy	.	1ryy	.	4r	.	4r	.
.	.	.	.	.	.	8.F#X^</L	.	8.d\L 8.f	.
.	.	.	.	.	.	16G/Jk	.	16d\Jk 16f	.
.	.	.	.	.	.	4G/	.	8d\ 8f	.
.	.	.	.	.	.	.	.	8r	.
.	.	.	.	.	.	4r	.	4r	.
*	*	*	*	*	*	*Xrep	*	*	*
=247	=247	=247	=247	=247	=247	=247	=247	=247	=247
*	*	*	*	*	*	*rep	*	*rep	*
1ryy	.	1ryy	.	1ryy	.	4r	.	4r	.
.	.	.	.	.	.	8.F#X^</L	.	8.d\L 8.f	.
.	.	.	.	.	.	16G/Jk	.	16d\Jk 16f	.
.	.	.	.	.	.	4G/	.	8d\ 8f	.
.	.	.	.	.	.	.	.	8r	.
.	.	.	.	.	.	4r	.	4r	.
*	*	*	*	*	*	*Xrep	*	*Xrep	*
=248	=248	=248	=248	=248	=248	=248	=248	=248	=248
*	*	*	*	*	*	*rep	*	*rep	*
1r	.	1r	.	1r	.	4r	.	4r	.
.	.	.	.	.	.	8.F#X^/L	.	8.d\L 8.f	.
.	.	.	.	.	.	16G/Jk	.	16d\Jk 16f	.
.	.	.	.	.	.	4G/	.	8d\ 8f	.
.	.	.	.	.	.	.	.	8r	.
.	.	.	.	.	.	4r	.	4r	.
*	*	*	*	*	*	*Xrep	*	*Xrep	*
!!LO:LB:g=original
=249	=249	=249	=249	=249	=249	=249	=249	=249	=249
1r@	.	1r@	.	1r@	.	4r	.	4r	.
.	.	.	.	.	.	8.G^</L	.	8.c/L 8.e	.
.	.	.	.	.	.	16E/Jk	.	16c/Jk 16e	.
.	.	.	.	.	.	8C/	.	8c/ 8e	.
.	.	.	.	.	.	8r	.	8r	.
.	.	.	.	.	.	4r	.	4r	.
=250	=250	=250	=250	=250	=250	=250	=250	=250	=250
!	!	!	!	!	!	!	!	!	!LO:DY:rj
1ryy	.	1ryy	.	1ryy	.	[<1C	.	4r	pp
.	.	.	.	.	.	.	.	8.BX/L^<	.
.	.	.	.	.	.	.	.	16c/Jk	.
.	.	.	.	.	.	.	.	4c/	.
.	.	.	.	.	.	.	.	4r	.
=251	=251	=251	=251	=251	=251	=251	=251	=251	=251
*	*	*	*	*	*	*	*	*rep	*
1ryy	.	1ryy	.	1ryy	.	1C]	.	4r	.
.	.	.	.	.	.	.	.	8.BX/L	.
.	.	.	.	.	.	.	.	16c/Jk	.
.	.	.	.	.	.	.	.	4c/	.
.	.	.	.	.	.	.	.	4r	.
*	*	*	*	*	*	*	*	*Xrep	*
=252	=252	=252	=252	=252	=252	=252	=252	=252	=252
1r	.	1ryy	.	1ryy	.	1f	.	4r	.
.	.	.	.	.	.	.	.	8.G#X/L	.
.	.	.	.	.	.	.	.	16A/Jk	.
.	.	.	.	.	.	.	.	4A/	.
.	.	.	.	.	.	.	.	4r	.
=253	=253	=253	=253	=253	=253	=253	=253	=253	=253
*^	*	*	*	*	*	*	*	*	*
!LO:TX:b:t=Oph&colon;:color=blue:rj	!	!LO:DY:rj	!	!	!	!	!	!	!	!
1r	[>1BB	pp	1ryy	.	1ryy	.	[>1e	.	4r	.
.	.	.	.	.	.	.	.	.	8.B-/L	.
.	.	.	.	.	.	.	.	.	16BX/Jk	.
.	.	.	.	.	.	.	.	.	4B/	.
.	.	.	.	.	.	.	.	.	4r	.
=254	=254	=254	=254	=254	=254	=254	=254	=254	=254	=254
*	*	*	*	*	*	*	*rep	*	*rep	*
1r	1BB_>	.	1ryy	.	1ryy	.	1e_>	.	4r	.
.	.	.	.	.	.	.	.	.	8.B-/L	.
.	.	.	.	.	.	.	.	.	16BX/Jk	.
.	.	.	.	.	.	.	.	.	4B/	.
.	.	.	.	.	.	.	.	.	4r	.
*	*	*	*	*	*	*	*Xrep	*	*Xrep	*
=255	=255	=255	=255	=255	=255	=255	=255	=255	=255	=255
*	*	*	*	*	*	*	*rep	*	*rep	*
1r	1BB_>	.	1r	.	1r	.	1e]	.	4r	.
.	.	.	.	.	.	.	.	.	8.B-/L	.
.	.	.	.	.	.	.	.	.	16BX/Jk	.
.	.	.	.	.	.	.	.	.	4B/	.
.	.	.	.	.	.	.	.	.	4r	.
*	*	*	*	*	*	*	*Xrep	*	*Xrep	*
!!LO:LB:g=original
=256	=256	=256	=256	=256	=256	=256	=256	=256	=256	=256
*	*	*	*	*	*	*	*^	*	*^	*
!	!LO:TX:t=P:problem:brak zakończenia ligatury	!	!	!	!	!	!	!	!LO:DY:B:t=pp.	!	!	!LO:DY:rj
1r	1BB_>	.	1ryy	.	1ryy	.	[>1f#X	1r	pp	1r	[>1F#X	pp
=257	=257	=257	=257	=257	=257	=257	=257	=257	=257	=257	=257	=257
1r	1BB_>	.	1ryy	.	1ryy	.	1f#_>	1r	.	4r	1F#_<	.
.	.	.	.	.	.	.	.	.	.	8.B-^>/L	.	.
.	.	.	.	.	.	.	.	.	.	16BX/Jk	.	.
.	.	.	.	.	.	.	.	.	.	4B/	.	.
.	.	.	.	.	.	.	.	.	.	4r	.	.
=258	=258	=258	=258	=258	=258	=258	=258	=258	=258	=258	=258	=258
*	*	*	*	*	*	*	*	*	*	*rep	*	*
1r	1BB_>	.	1ryy	.	1ryy	.	1f#]	1r	.	4r	1F#_<	.
.	.	.	.	.	.	.	.	.	.	8.B-^>/L	.	.
.	.	.	.	.	.	.	.	.	.	16BX/Jk	.	.
.	.	.	.	.	.	.	.	.	.	4B/	.	.
.	.	.	.	.	.	.	.	.	.	4r	.	.
*	*	*	*	*	*	*	*	*	*	*Xrep	*	*
*	*	*	*	*	*	*	*v	*v	*	*	*	*
=259	=259	=259	=259	=259	=259	=259	=259	=259	=259	=259	=259
*	*	*	*	*	*	*	*	*	*rep	*	*
1r	1BB]	.	1ryy	.	1ryy	.	2f#X/	.	4r	2.F#\]	.
.	.	.	.	.	.	.	.	.	8.B-^>/L	.	.
.	.	.	.	.	.	.	.	.	16BX/Jk	.	.
.	.	.	.	.	.	.	4e/	.	4B/	.	.
.	.	.	.	.	.	.	4f#/	.	4r	4rc	.
*	*	*	*	*	*	*	*	*	*Xrep	*	*
=260	=260	=260	=260	=260	=260	=260	=260	=260	=260	=260	=260
!	!	!	!	!	!	!	!	!	!LO:TX:b:t=ac-ce-le-rando:dur=8q:ext=ud:problem:text with extention lines	!	!
1r	4E\	.	1ryy	.	1ryy	.	4e/	.	4r	[<1E	.
!	!LO:TX:a:t=accelerando	!	!	!	!	!	!	!	!	!	!
.	4r	.	.	.	.	.	4r	.	8.d#X^</L	.	<
.	.	.	.	.	.	.	.	.	16e/Jk	.	.
.	2r	.	.	.	.	.	2r	.	2e/	.	[
=261	=261	=261	=261	=261	=261	=261	=261	=261	=261	=261	=261
*	*	*	*	*	*	*	*	*	*rep	*	*
!	!	!LO:HP:a	!	!	!	!	!	!	!	!	!
!	!	!LO:DY:b:rj	!	!	!	!	!	!LO:DY:rj	!	!	!LO:DY:rj
1r	[<1EE	mf >	1ryy	.	1ryy	.	[>1E	mf > ]]	4r	1E_>	mf
.	.	.	.	.	.	.	.	.	8.d#X^</L	.	>
.	.	.	.	.	.	.	.	.	16e/Jk	.	.
.	.	.	.	.	.	.	.	.	2e/	.	]
*	*	*	*	*	*	*	*	*	*Xrep	*	*
=262	=262	=262	=262	=262	=262	=262	=262	=262	=262	=262	=262
*	*	*	*	*	*	*	*	*	*rep	*	*
1r	4EE/]	]	1ryy	.	1ryy	.	4E/]	.	4r	1E_>	<
.	4r	.	.	.	.	.	4r	.	8.d#X^</L	.	.
.	.	.	.	.	.	.	.	.	16e/Jk	.	.
.	2r	.	.	.	.	.	2r	.	2e/	.	[
*	*	*	*	*	*	*	*	*	*Xrep	*	*
=263	=263	=263	=263	=263	=263	=263	=263	=263	=263	=263	=263
*	*	*	*	*	*	*	*	*	*rep	*	*
!	!	!LO:HP:a	!	!	!	!	!	!LO:DY:rj	!	!	!LO:DY:rj
1r	[>1EE	>	1r	.	1r	.	1E	mf >	4r	1E]	mf >
.	.	.	.	.	.	.	.	.	8.d#X^/L	.	.
.	.	.	.	.	.	.	.	.	16e/Jk	.	.
.	.	]]	.	.	.	.	.	]]	2e/	.	]]
*	*	*	*	*	*	*	*	*	*Xrep	*	*
*v	*v	*	*	*	*	*	*	*	*v	*v	*
!!LO:PB:g=original
=264||	=264||	=264||	=264||	=264||	=264||	=264||	=264||	=264||	=264||
!!!OMD: Presto.
*M2/2	*	*M2/2	*	*M2/2	*	*M2/2	*	*M2/2	*
*met(c|)	*	*met(c|)	*	*met(c|)	*	*met(c|)	*	*met(c|)	*
*^	*	*	*	*	*	*	*	*	*
!	!LO:TX:t=P:problem:brak zakończenia ligatury	!	!	!	!	!	!	!	!	!
1r	4EE/]	.	1ryy	.	1r	.	4E/	.	1r	.
.	4r	.	.	.	.	.	2E/	.	.	.
.	2r	.	.	.	.	.	.	.	.	.
.	.	.	.	.	.	.	[<4E/	.	.	.
*v	*v	*	*	*	*	*	*	*	*	*
=265	=265	=265	=265	=265	=265	=265	=265	=265	=265
1r	.	1ryy	.	1ryy	.	4E/]	.	1r	.
.	.	.	.	.	.	2E/	.	.	.
.	.	.	.	.	.	[<4E/	.	.	.
=266	=266	=266	=266	=266	=266	=266	=266	=266	=266
*	*	*	*	*	*	*rep	*	*	*
!	!	!	!	!	!	!	!	!LO:TX:b:t=cis:color=blue	!LO:DY:rj
1r	.	1ryy	.	1ryy	.	4E/]	.	1F#X	p
.	.	.	.	.	.	2E/	.	.	.
.	.	.	.	.	.	[<4E/	.	.	.
*	*	*	*	*	*	*Xrep	*	*	*
=267	=267	=267	=267	=267	=267	=267	=267	=267	=267
*	*	*	*	*	*	*rep	*	*	*
!	!	!	!	!	!	!	!	!LO:SIC:v:s=1c#:t=?	!
1r	.	1ryy	.	1ryy	.	4E/]	.	1F	.
.	.	.	.	.	.	2E/	.	.	.
.	.	.	.	.	.	4E/	.	.	.
*	*	*	*	*	*	*Xrep	*	*	*
=268	=268	=268	=268	=268	=268	=268	=268	=268	=268
*	*	*	*	*	*	*^	*	*^	*
1r	.	1ryy	.	1ryy	.	[>1e	4c\	.	[>1g	4G\	.
.	.	.	.	.	.	.	2c\	.	.	2G\	.
.	.	.	.	.	.	.	4c\	.	.	[<4G\	.
=269	=269	=269	=269	=269	=269	=269	=269	=269	=269	=269	=269
1r	.	1ryy	.	1r	.	1e]	4c\	.	1g]	4G\]	.
.	.	.	.	.	.	.	2c\	.	.	2G\	.
.	.	.	.	.	.	.	4c\	.	.	4c\	.
=270	=270	=270	=270	=270	=270	=270	=270	=270	=270	=270	=270
1r	.	1ryy	.	1r	.	4e/	4E\	.	[>1g#X	[<1BX	.
.	.	.	.	.	.	2e/	2E\	.	.	.	.
.	.	.	.	.	.	[>4e/	[<4E\	.	.	.	.
=271	=271	=271	=271	=271	=271	=271	=271	=271	=271	=271	=271
*	*	*	*	*	*	*rep	*rep	*	*rep	*rep	*
1r	.	1ryy	.	1r	.	4e/]	4E\]	.	1g#]	1B]	.
.	.	.	.	.	.	2e/	2E\	.	.	.	.
.	.	.	.	.	.	4e/	4E\	.	.	.	.
*	*	*	*	*	*	*Xrep	*Xrep	*	*Xrep	*Xrep	*
*	*	*	*	*	*	*	*	*	*v	*v	*
!!LO:LB:g=original
=272	=272	=272	=272	=272	=272	=272	=272	=272	=272	=272
*^	*	*	*	*	*	*	*	*	*	*
!	!	!LO:DY:rj	!	!	!	!	!	!	!	!LO:TX:a:t=U:rj:color=red	!
2F^</	2FF\	f	1r	.	2a^^>\ 2cc	f	4c/	4A\	.	4A/ 4a	f
.	.	.	.	.	.	.	8A/L 8c	8ryy	.	8A/L 8a	.
.	.	.	.	.	.	.	8A/J 8c	8ryy	.	8A/J 8a	.
2r	2r	.	.	.	2r	.	[>2c/	[>2A\	.	[<2A/ [>2a	.
*v	*v	*	*	*	*	*	*	*	*	*	*
=273	=273	=273	=273	=273	=273	=273	=273	=273	=273	=273
*	*	*	*	*rep	*	*rep	*rep	*	*rep	*
1r	.	1r	.	2a^^\ 2cc	f y	4c/]	4A\]	.	4A/] 4a]	.
.	.	.	.	.	.	8A/L 8c	8ryy	.	8A/L 8a	.
.	.	.	.	.	.	8A/J 8c	8ryy	.	8A/J 8a	.
!	!	!	!	!	!	!	!	!	!LO:TX:t=P:problem:czerwona linia oddzielająca części	!
.	.	.	.	2r	.	[>2c/	[>2A\	.	[<2A/ [>2a	.
*	*	*	*	*Xrep	*	*Xrep	*Xrep	*	*Xrep	*
=274||	=274||	=274||	=274||	=274||	=274||	=274||	=274||	=274||	=274||	=274||
*	*	*	*	*^	*	*	*	*	*	*
*	*	*	*	*	*	*	*rep	*rep	*	*rep	*
!	!	!	!	!LO:TX:a:t=C=:color=red	!	!	!	!	!	!	!
1r	.	1r	.	2a/	2a\	.	4c/]	4A\]	.	4A/] 4a]	.
.	.	.	.	.	.	.	8A/L 8c	8ryy	.	8A/L 8a	.
.	.	.	.	.	.	.	8A/J 8c	8ryy	.	8A/J 8a	.
.	.	.	.	4r	4ryy	.	2c/	2A\	.	[<2A/ [>2a	.
.	.	.	.	8a/L	8a\L	.	.	.	.	.	.
.	.	.	.	8a/J	8a\J	.	.	.	.	.	.
*	*	*	*	*	*	*	*Xrep	*Xrep	*	*Xrep	*
*	*	*	*	*	*	*	*v	*v	*	*	*
=275	=275	=275	=275	=275	=275	=275	=275	=275	=275	=275
1r	.	1ryy	.	4a/	4a\	.	4A/ 4c	.	4A/] 4a]	.
.	.	.	.	2a/	2a\	.	8A/L 8c	.	8A/L 8a	.
.	.	.	.	.	.	.	8A/J 8c	.	8A/J 8a	.
.	.	.	.	.	.	.	4A/ 4c	.	4A/ 4a	.
.	.	.	.	8a\L 8cc	8ryy	.	[<4A^^>/ [>4c	.	[<4A^^>/ [>4a	.
.	.	.	.	8a\J 8cc	8ryy	.	.	.	.	.
=276	=276	=276	=276	=276	=276	=276	=276	=276	=276	=276
*	*	*	*	*	*	*	*^	*	*^	*
*	*	*	*	*rep	*rep	*	*	*	*	*	*	*
1ryy	.	1ryy	.	4a/	4a\	.	4A/] 4c]	4ryy	.	4A/] 4a]	4ryy	.
.	.	.	.	2a/	2a\	.	8A/L 8c	8ryy	.	8A/L 8a	8ryy	.
.	.	.	.	.	.	.	8A/J 8c	8ryy	.	8A/J 8a	8ryy	.
.	.	.	.	.	.	.	[>2c/	[>2A\	.	[>2a/	[<2A\	.
.	.	.	.	8a\L 8cc	8ryy	.	.	.	.	.	.	.
.	.	.	.	8a\J 8cc	8ryy	.	.	.	.	.	.	.
*	*	*	*	*Xrep	*Xrep	*	*	*	*	*	*	*
=277	=277	=277	=277	=277	=277	=277	=277	=277	=277	=277	=277	=277
*	*	*	*	*rep	*rep	*	*rep	*rep	*	*rep	*rep	*
1ryy	.	1ryy	.	4a/	4a\	.	4A/] 4c]	4ryy	.	4A/] 4a]	4ryy	.
.	.	.	.	2a/	2a\	.	8A/L 8c	8ryy	.	8A/L 8a	8ryy	.
.	.	.	.	.	.	.	8A/J 8c	8ryy	.	8A/J 8a	8ryy	.
.	.	.	.	.	.	.	[>2c/	[>2A\	.	[>2a/	[<2A\	.
.	.	.	.	8a\L 8cc	8ryy	.	.	.	.	.	.	.
.	.	.	.	8a\J 8cc	8ryy	.	.	.	.	.	.	.
*	*	*	*	*Xrep	*Xrep	*	*Xrep	*Xrep	*	*Xrep	*Xrep	*
=278	=278	=278	=278	=278	=278	=278	=278	=278	=278	=278	=278	=278
*	*	*	*	*rep	*rep	*	*rep	*rep	*	*rep	*rep	*
1ryy	.	1ryy	.	4a/	4a\	.	4A/] 4c]	4ryy	.	4A/] 4a]	4ryy	.
.	.	.	.	2a/	2a\	.	8A/L 8c	8ryy	.	8A/L 8a	8ryy	.
.	.	.	.	.	.	.	8A/J 8c	8ryy	.	8A/J 8a	8ryy	.
.	.	.	.	.	.	.	2c/	2A\	.	2a/	2A\	.
.	.	.	.	8a\L 8cc	8ryy	.	.	.	.	.	.	.
.	.	.	.	8a\J 8cc	8ryy	.	.	.	.	.	.	.
*	*	*	*	*Xrep	*Xrep	*	*Xrep	*Xrep	*	*Xrep	*Xrep	*
*	*	*	*	*	*	*	*	*	*	*v	*v	*
!!LO:LB:g=original
=279	=279	=279	=279	=279	=279	=279	=279	=279	=279	=279	=279
1r	.	1r	.	2.a/	2.a\	.	4c/	4c\	.	2.A^</ 2.a	.
.	.	.	.	.	.	.	2c/	2c\	.	.	.
.	.	.	.	8a/L	8a\L	.	[>4c/	[>4c\	.	8A/L 8a	.
.	.	.	.	8a/J	8a\J	.	.	.	.	8A/J 8a	.
=280	=280	=280	=280	=280	=280	=280	=280	=280	=280	=280	=280
*	*	*	*	*rep	*rep	*	*	*	*	*rep	*
1r	.	1r	.	2.a/	2.a\	.	4c/]	4c\]	.	2.A^</ 2.a	.
.	.	.	.	.	.	.	2c/	2c\	.	.	.
.	.	.	.	8a/L	8a\L	.	[>4c/	4c\	.	8A/L 8a	.
.	.	.	.	8a/J	8a\J	.	.	.	.	8A/J 8a	.
*	*	*	*	*Xrep	*Xrep	*	*	*	*	*Xrep	*
=281	=281	=281	=281	=281	=281	=281	=281	=281	=281	=281	=281
*	*	*	*	*rep	*rep	*	*	*	*	*rep	*
1r	.	1r	.	2.a/	2.a\	.	4c/]	4c\	.	2.A^</ 2.a	.
.	.	.	.	.	.	.	2c/	2c\	.	.	.
.	.	.	.	8a/L	8a\L	.	8c/L	8c\L	.	8A/L 8a	.
.	.	.	.	8a/J	8a\J	.	8c/J	8c\J	.	8A/J 8a	.
*	*	*	*	*Xrep	*Xrep	*	*	*	*	*Xrep	*
=282	=282	=282	=282	=282	=282	=282	=282	=282	=282	=282	=282
1r	.	1r	.	4a/	4a\	.	4c/	4c\	.	4A/ 4a	.
.	.	.	.	4r	4ryy	.	8c/L	8c\L	.	8A/L 8a	.
.	.	.	.	.	.	.	8c/J	8c\J	.	8A/J 8a	.
.	.	.	.	2r	2ryy	.	4c/	4c\	.	4A/ 4a	.
.	.	.	.	.	.	.	4c/	4c\	.	4A/ 4a	.
*	*	*	*	*v	*v	*	*	*	*	*	*
*	*	*	*	*	*	*v	*v	*	*	*
=283	=283	=283	=283	=283	=283	=283	=283	=283	=283
!	!LO:DY:rj	!	!LO:DY:rj	!	!LO:DY:rj	!	!LO:DY:rj	!	!LO:DY:rj
[<1GG [>1G	sfff	[>1B-X [>1e-X	sfff	[>1b-X [>1ee-X	fff	[>1e-X [>1g	fff	[>1B- [>1b-	fff
=284	=284	=284	=284	=284	=284	=284	=284	=284	=284
*rep	*	*rep	*	*rep	*	*rep	*	*rep	*
1GG] 1G]	.	1B-_> 1e-_>	.	1b-_> 1ee-_>	.	1e-_> 1g_>	.	1B-] 1b-]	.
*Xrep	*	*Xrep	*	*Xrep	*	*Xrep	*	*Xrep	*
=285	=285	=285	=285	=285	=285	=285	=285	=285	=285
*	*	*	*	*^	*	*	*	*	*
4GG/ 4G	.	4B-X\] 4e-X]	.	4b-X\] 4ee-X]	4ryy	.	4e-\] 4g]	.	4B-/ 4b-	.
4GG^</ 4G	.	4B-^>\ 4e-	.	2b-X^>/	2g\	.	2e-X^>\ 2g	.	2B-^</ 2b-	.
4r	.	4r	.	.	.	.	.	.	.	.
4GG^</ 4G	.	4B-^>\ 4e-	.	[>4b-^>/	[>4g\	.	[>4e-^>\ [>4g	.	[<4B-^</ [>4b-	.
*	*	*	*	*v	*v	*	*	*	*	*
=286	=286	=286	=286	=286	=286	=286	=286	=286	=286
*	*	*^	*	*	*	*^	*	*^	*
4r	.	4r	4ryy	.	4g/] 4b-]	.	4e-\] 4g]	4ryy	.	4B-/] 4b-]	4ryy	.
!	!	!LO:SIC:v:s=4B-	!	!	!	!	!	!	!	!	!	!
4GG^</ 4G	.	4B^>/	4B\	.	4g^</ 4b-X	.	2G^>\ 2g	2ryy	.	(>2b-^</	(<2B-\	.
4r	.	4r	4ryy	.	2r	.	.	.	.	.	.	.
!	!LO:DY:rj	!	!	!LO:DY:rj	!	!	!	!	!	!	!	!
4AA'</ 4A	p	4A'>/	4A\	p	.	.	4e-y/	4G\	.	4A/)) 4a	4ryy	.
*	*	*	*	*	*	*	*v	*v	*	*	*	*
*	*	*v	*v	*	*	*	*	*	*v	*v	*
!!LO:PB:g=original
=287	=287	=287	=287	=287	=287	=287	=287	=287	=287
1r	.	1r	.	1r	.	4F/ 4d	.	4A/ 4a	.
.	.	.	.	.	.	4r	.	4r	.
.	.	.	.	.	.	2r	.	2r	.
=288	=288	=288	=288	=288	=288	=288	=288	=288	=288
1r	.	1r	.	1r	.	1r	.	1r	.
=289	=289	=289	=289	=289	=289	=289	=289	=289	=289
*^	*	*^	*	*	*	*	*	*^	*
!	!	!	!	!	!	!	!	!	!	!	!	!LO:DY:rj
2.E/	2AA\	.	2.e/	2.e\	.	4a\ 4ee	.	2.A/ 2.c	.	2.c/	2.A\	ff
.	.	.	.	.	.	8a\L 8ee	.	.	.	.	.	.
.	.	.	.	.	.	8a\J 8ee	.	.	.	.	.	.
.	2r	.	.	.	.	4a\ 4ee	.	.	.	.	.	.
4E/	.	.	8e/L	8e\L	.	4r	.	8A/L 8c	.	8A/L 8c	8ryy	.
.	.	.	8e/J	8e\J	.	.	.	8A/J 8c	.	8A/J 8c	8ryy	.
*	*	*	*	*	*	*	*	*	*	*v	*v	*
=290	=290	=290	=290	=290	=290	=290	=290	=290	=290	=290	=290
*	*	*	*	*	*	*^	*	*	*	*	*
2.E/	2EE\	.	2.e/	2.e\	.	4ee/	4ee\	.	2.G#X/ 2.BX	.	2.G#X/ 2.BX	.
.	.	.	.	.	.	8ee/L	8ee\L	.	.	.	.	.
.	.	.	.	.	.	8ee/J	8ee\J	.	.	.	.	.
.	2r	.	.	.	.	4ee/	4ee\	.	.	.	.	.
!	!	!	!	!	!	!LO:TX:b:t==D:color=red	!	!	!	!	!	!
4E/	.	.	4e/	4e\	.	4r	4ryy	.	8G#/L 8B	.	8G#/L 8B	.
.	.	.	.	.	.	.	.	.	8G#/J 8B	.	8G#/J 8B	.
=291||	=291||	=291||	=291||	=291||	=291||	=291||	=291||	=291||	=291||	=291||	=291||	=291||
*	*	*	*	*	*	*	*	*	*^	*	*^	*
2F^</	2FF\	.	2c^>/	2A\	.	2.cc^>/	2.a\	.	4A/	4A\	.	4A/	4A\	.
.	.	.	.	.	.	.	.	.	8A/L 8c	8ryy	.	8A/L 8a	8ryy	.
.	.	.	.	.	.	.	.	.	8A/J 8c	8ryy	.	8A/J 8a	8ryy	.
2r	2r	.	2r	2r	.	.	.	.	[>2c/	[>2A\	.	[>2a/	[>2A\	.
.	.	.	.	.	.	4r	4ryy	.	.	.	.	.	.	.
*v	*v	*	*	*	*	*	*	*	*	*	*	*	*	*
*	*	*v	*v	*	*	*	*	*	*	*	*	*	*
=292	=292	=292	=292	=292	=292	=292	=292	=292	=292	=292	=292	=292
1ryy	.	1r	.	2cc/	2a\	.	4c/]	4A\]	.	4a/]	4A\]	.
.	.	.	.	.	.	.	8A/L 8c	8ryy	.	8A/L 8a	8ryy	.
.	.	.	.	.	.	.	8A/J 8c	8ryy	.	8A/J 8a	8ryy	.
.	.	.	.	2r	2ryy	.	2c/	2A\	.	[>2a/	2A\	.
*	*	*	*	*	*	*	*v	*v	*	*v	*v	*
=293	=293	=293	=293	=293	=293	=293	=293	=293	=293	=293
!	!	!LO:TX:a:t=Cone sopra\nC=D	!	!LO:TX:a:t=C=:color=red	!	!	!	!	!	!
1ryy	.	1ryy	.	4a/yy	4a\yy	.	4A/yy 4cyy	.	4A/yy 4a]yy	.
.	.	.	.	2a/yy	2a\yy	.	8A/Lyy 8cyy	.	8A/Lyy 8ayy	.
.	.	.	.	.	.	.	8A/Jyy 8cyy	.	8A/Jyy 8ayy	.
.	.	.	.	.	.	.	4A/yy 4cyy	.	4A/yy 4ayy	.
.	.	.	.	8a\Lyy 8ccyy	8ryy	.	[<4A^^>/yy [>4cyy	.	[<4A^^>/yy [>4ayy	.
.	.	.	.	8a\Jyy 8ccyy	8ryy	.	.	.	.	.
=294	=294	=294	=294	=294	=294	=294	=294	=294	=294	=294
*	*	*	*	*	*	*	*^	*	*^	*
*	*	*	*	*rep	*rep	*	*	*	*	*	*	*
1ryy	.	1ryy	.	4a/yy	4a\yy	.	4A/]yy 4c]yy	4ryy	.	4A/]yy 4a]yy	4ryy	.
.	.	.	.	2a/yy	2a\yy	.	8A/Lyy 8cyy	8ryy	.	8A/Lyy 8ayy	8ryy	.
.	.	.	.	.	.	.	8A/Jyy 8cyy	8ryy	.	8A/Jyy 8ayy	8ryy	.
.	.	.	.	.	.	.	[>2c/yy	[>2A\yy	.	[>2a/yy	[<2A\yy	.
.	.	.	.	8a\Lyy 8ccyy	8ryy	.	.	.	.	.	.	.
.	.	.	.	8a\Jyy 8ccyy	8ryy	.	.	.	.	.	.	.
*	*	*	*	*Xrep	*Xrep	*	*	*	*	*	*	*
=295	=295	=295	=295	=295	=295	=295	=295	=295	=295	=295	=295	=295
*	*	*	*	*rep	*rep	*	*rep	*rep	*	*rep	*rep	*
1ryy	.	1ryy	.	4a/yy	4a\yy	.	4A/]yy 4c]yy	4ryy	.	4A/]yy 4a]yy	4ryy	.
.	.	.	.	2a/yy	2a\yy	.	8A/Lyy 8cyy	8ryy	.	8A/Lyy 8ayy	8ryy	.
.	.	.	.	.	.	.	8A/Jyy 8cyy	8ryy	.	8A/Jyy 8ayy	8ryy	.
.	.	.	.	.	.	.	[>2c/yy	[>2A\yy	.	[>2a/yy	[<2A\yy	.
.	.	.	.	8a\Lyy 8ccyy	8ryy	.	.	.	.	.	.	.
.	.	.	.	8a\Jyy 8ccyy	8ryy	.	.	.	.	.	.	.
*	*	*	*	*Xrep	*Xrep	*	*Xrep	*Xrep	*	*Xrep	*Xrep	*
=296	=296	=296	=296	=296	=296	=296	=296	=296	=296	=296	=296	=296
*	*	*	*	*rep	*rep	*	*rep	*rep	*	*rep	*rep	*
1ryy	.	1ryy	.	4a/yy	4a\yy	.	4A/]yy 4c]yy	4ryy	.	4A/]yy 4a]yy	4ryy	.
.	.	.	.	2a/yy	2a\yy	.	8A/Lyy 8cyy	8ryy	.	8A/Lyy 8ayy	8ryy	.
.	.	.	.	.	.	.	8A/Jyy 8cyy	8ryy	.	8A/Jyy 8ayy	8ryy	.
.	.	.	.	.	.	.	2c/yy	2A\yy	.	2a/yy	2A\yy	.
.	.	.	.	8a\Lyy 8ccyy	8ryy	.	.	.	.	.	.	.
.	.	.	.	8a\Jyy 8ccyy	8ryy	.	.	.	.	.	.	.
*	*	*	*	*Xrep	*Xrep	*	*Xrep	*Xrep	*	*Xrep	*Xrep	*
*	*	*	*	*	*	*	*	*	*	*v	*v	*
=297	=297	=297	=297	=297	=297	=297	=297	=297	=297	=297	=297
1ryy	.	1ryy	.	2.a/yy	2.a\yy	.	4c/yy	4c\yy	.	2.A^</yy 2.ayy	.
.	.	.	.	.	.	.	2c/yy	2c\yy	.	.	.
.	.	.	.	8a/Lyy	8a\Lyy	.	[>4c/yy	[>4c\yy	.	8A/Lyy 8ayy	.
.	.	.	.	8a/Jyy	8a\Jyy	.	.	.	.	8A/Jyy 8ayy	.
=298	=298	=298	=298	=298	=298	=298	=298	=298	=298	=298	=298
*	*	*	*	*rep	*rep	*	*	*	*	*rep	*
1ryy	.	1ryy	.	2.a/yy	2.a\yy	.	4c/]yy	4c\]yy	.	2.A^</yy 2.ayy	.
.	.	.	.	.	.	.	2c/yy	2c\yy	.	.	.
.	.	.	.	8a/Lyy	8a\Lyy	.	[>4c/yy	4c\yy	.	8A/Lyy 8ayy	.
.	.	.	.	8a/Jyy	8a\Jyy	.	.	.	.	8A/Jyy 8ayy	.
*	*	*	*	*Xrep	*Xrep	*	*	*	*	*Xrep	*
=299	=299	=299	=299	=299	=299	=299	=299	=299	=299	=299	=299
*	*	*	*	*rep	*rep	*	*	*	*	*rep	*
1ryy	.	1ryy	.	2.a/yy	2.a\yy	.	4c/]yy	4c\yy	.	2.A^</yy 2.ayy	.
.	.	.	.	.	.	.	2c/yy	2c\yy	.	.	.
.	.	.	.	8a/Lyy	8a\Lyy	.	8c/Lyy	8c\Lyy	.	8A/Lyy 8ayy	.
.	.	.	.	8a/Jyy	8a\Jyy	.	8c/Jyy	8c\Jyy	.	8A/Jyy 8ayy	.
*	*	*	*	*Xrep	*Xrep	*	*	*	*	*Xrep	*
=300	=300	=300	=300	=300	=300	=300	=300	=300	=300	=300	=300
1ryy	.	1ryy	.	4a/yy	4a\yy	.	4c/yy	4c\yy	.	4A/yy 4ayy	.
.	.	.	.	4ryy	4ryy	.	8c/Lyy	8c\Lyy	.	8A/Lyy 8ayy	.
.	.	.	.	.	.	.	8c/Jyy	8c\Jyy	.	8A/Jyy 8ayy	.
.	.	.	.	2ryy	2ryy	.	4c/yy	4c\yy	.	4A/yy 4ayy	.
.	.	.	.	.	.	.	4c/yy	4c\yy	.	4A/yy 4ayy	.
*	*	*	*	*v	*v	*	*	*	*	*	*
*	*	*	*	*	*	*v	*v	*	*	*
=301	=301	=301	=301	=301	=301	=301	=301	=301	=301
!	!LO:DY:rj	!	!LO:DY:rj	!	!LO:DY:rj	!	!LO:DY:rj	!	!LO:DY:rj
[<1GGyy [>1Gyy	sfff y	[>1B-Xyy [>1e-Xyy	sfff y	[>1b-Xyy [>1ee-Xyy	fff y	[>1e-Xyy [>1gyy	fff y	[>1B-yy [>1b-yy	fff y
=302	=302	=302	=302	=302	=302	=302	=302	=302	=302
*rep	*	*rep	*	*rep	*	*rep	*	*rep	*
1GG]yy 1G]yy	.	1B-_>yy 1e-_>yy	.	1b-_>yy 1ee-_>yy	.	1e-_>yy 1g_>yy	.	1B-]yy 1b-]yy	.
*Xrep	*	*Xrep	*	*Xrep	*	*Xrep	*	*Xrep	*
=303	=303	=303	=303	=303	=303	=303	=303	=303	=303
*	*	*	*	*^	*	*	*	*	*
4GG/yy 4Gyy	.	4B-X\]yy 4e-X]yy	.	4b-X\]yy 4ee-X]yy	4ryy	.	4e-\]yy 4g]yy	.	4B-/yy 4b-yy	.
4GG^</yy 4Gyy	.	4B-^>\yy 4e-yy	.	2b-X^>/yy	2g\yy	.	2e-X^>\yy 2g\yy	.	2B-^</yy 2b-yy	.
4ryy	.	4ryy	.	.	.	.	.	.	.	.
4GG^</yy 4Gyy	.	4B-^>\yy 4e-yy	.	[>4b-^>/yy	[>4g\yy	.	[>4e-^>\yy [>4gyy	.	[<4B-^</yy [>4b-yy	.
*	*	*	*	*v	*v	*	*	*	*	*
=304	=304	=304	=304	=304	=304	=304	=304	=304	=304
*	*	*^	*	*	*	*^	*	*^	*
4ryy	.	4ryy	4ryy	.	4g/]yy 4b-]yy	.	4e-\]yy 4g]yy	4ryy	.	4B-/]yy 4b-]yy	4ryy	.
!	!	!LO:SIC:v:s=4B-	!	!	!	!	!	!	!	!	!	!
4GG^</yy 4Gyy	.	4B^>/yy	4B\yy	.	4g^</yy 4b-Xyy	.	2G^>\yy 2gyy	2ryy	.	(>2b-^</yy	(<2B-\yy	.
4ryy	.	4ryy	4ryy	.	2ryy	.	.	.	.	.	.	.
!	!LO:DY:rj	!	!	!LO:DY:rj	!	!	!	!	!	!	!	!
4AA'</yy 4Ayy	p y	4A'>/yy	4A\yy	p y	.	.	4e-y/yy	4G\yy	.	4A/))yy 4ayy	4ryy	.
*	*	*	*	*	*	*	*v	*v	*	*	*	*
*	*	*v	*v	*	*	*	*	*	*v	*v	*
=305	=305	=305	=305	=305	=305	=305	=305	=305	=305
1ryy	.	1ryy	.	1ryy	.	4F/yy 4dyy	.	4A/yy 4ayy	.
.	.	.	.	.	.	4ryy	.	4ryy	.
.	.	.	.	.	.	2ryy	.	2ryy	.
=306	=306	=306	=306	=306	=306	=306	=306	=306	=306
1ryy	.	1ryy	.	1ryy	.	1ryy	.	1ryy	.
=307	=307	=307	=307	=307	=307	=307	=307	=307	=307
*^	*	*^	*	*	*	*	*	*^	*
!	!	!	!	!	!	!	!	!	!	!	!	!LO:DY:rj
2.E/yy	2AA\yy	.	2.e/yy	2.e\yy	.	4a\yy 4eeyy	.	2.A/yy 2.cyy	.	2.c/yy	2.A\yy	ff y
.	.	.	.	.	.	8a\Lyy 8eeyy	.	.	.	.	.	.
.	.	.	.	.	.	8a\Jyy 8eeyy	.	.	.	.	.	.
.	2ryy	.	.	.	.	4a\yy 4eeyy	.	.	.	.	.	.
4E/yy	.	.	8e/Lyy	8e\Lyy	.	4ryy	.	8A/Lyy 8cyy	.	8A/Lyy 8cyy	8ryy	.
.	.	.	8e/Jyy	8e\Jyy	.	.	.	8A/Jyy 8cyy	.	8A/Jyy 8cyy	8ryy	.
*	*	*	*	*	*	*	*	*	*	*v	*v	*
=308	=308	=308	=308	=308	=308	=308	=308	=308	=308	=308	=308
*	*	*	*	*	*	*^	*	*	*	*	*
2.E/yy	2EE\yy	.	2.e/yy	2.e\yy	.	4ee/yy	4ee\yy	.	2.G#X/yy 2.BX/yy	.	2.G#X/yy 2.BX/yy	.
.	.	.	.	.	.	8ee/Lyy	8ee\Lyy	.	.	.	.	.
.	.	.	.	.	.	8ee/Jyy	8ee\Jyy	.	.	.	.	.
.	2ryy	.	.	.	.	4ee/yy	4ee\yy	.	.	.	.	.
!	!	!	!	!	!	!LO:TX:b:t==D:color=red	!	!	!	!	!	!
4E/yy	.	.	4e/yy	4e\yy	.	4ryy	4ryy	.	8G#/Lyy 8B/yy	.	8G#/Lyy 8B/yy	.
.	.	.	.	.	.	.	.	.	8G#/Jyy 8B/yy	.	8G#/Jyy 8B/yy	.
*	*	*	*v	*v	*	*	*	*	*	*	*	*
*	*	*	*	*	*v	*v	*	*	*	*	*
!!LO:LB:g=original
=309	=309	=309	=309	=309	=309	=309	=309	=309	=309	=309
*	*	*	*	*	*	*	*^	*	*^	*
4A/	4AA\	.	4c\ 4e	.	4a\	.	4c/	4A\	.	4c/	4A\	.
4r	4ryy	.	4r	.	4r	.	4r	4ryy	.	2e^>/	4r	.
2r	2ryy	.	2r	.	2r	.	2r	2ryy	.	.	2r	.
.	.	.	.	.	.	.	.	.	.	4e/	.	.
*v	*v	*	*	*	*	*	*v	*v	*	*	*	*
=310	=310	=310	=310	=310	=310	=310	=310	=310	=310	=310
1r	.	1r	.	1r	.	1r	.	4e/	4r	.
.	.	.	.	.	.	.	.	2e/	2E\	.
.	.	.	.	.	.	.	.	4e/	4E\	.
*	*	*	*	*	*	*	*	*v	*v	*
=311	=311	=311	=311	=311	=311	=311	=311	=311	=311
*	*	*	*	*	*	*^	*	*	*
1r	.	1r	.	1r	.	4r	1r	.	4E/ 4e	.
.	.	.	.	.	.	2e^</	.	.	2E^/ 2e	.
.	.	.	.	.	.	4e/	.	.	4E/ 4e	.
=312	=312	=312	=312	=312	=312	=312	=312	=312	=312	=312
*	*	*	*	*^	*	*	*	*	*	*
1r	.	1r	.	4r	2rc	.	4e/	4r	.	4E/ 4e	.
.	.	.	.	2ee/	.	.	8E/L 8e	8ryy	.	8E/L 8e	.
.	.	.	.	.	.	.	8E/J 8e	8ryy	.	8E/J 8e	.
.	.	.	.	.	4r	.	4E/ 4e	4ryy	.	4E/ 4e	.
.	.	.	.	4ee/	4e\	.	4E/ 4e	4ryy	.	4E/ 4e	.
=313	=313	=313	=313	=313	=313	=313	=313	=313	=313	=313	=313
*^	*	*^	*	*	*	*	*	*	*	*^	*
!	!	!LO:DY:rj	!	!	!LO:DY:rj	!	!	!LO:DY:rj	!	!	!LO:DY:rj	!	!	!LO:DY:rj
2AA/	4.AA\	ff	2AA/	2AA\	ff	2a\ 2cc	2ryy	ff	2A/ 2c	2ryy	ff	2e/	2A\	ff
.	8r	.	.	.	.	.	.	.	.	.	.	.	.	.
4BB-X/	2r	.	4BB-X/	4BB-\	.	4dd/	2g\	.	4d/	2G\	.	2g/	4d\	.
4BBn/	.	.	4BBn/	4BBn\	.	8r	.	.	8r	.	.	.	8r	.
.	.	.	.	.	.	8dd/	.	.	8d/	.	.	.	8d\	.
=314	=314	=314	=314	=314	=314	=314	=314	=314	=314	=314	=314	=314	=314	=314
2C/	2.AA\	.	2C/	2C\	.	2ff/	2a\	.	2c/	2A\	.	2f/	2A\	.
4C#X/	.	.	4C#X/	4C#\	.	4ee/	4a\	.	2c/	4A\	.	2e/	4A\	.
4D/	4r	.	4D/	4D\	.	8r	8ryy	.	.	8r	.	.	8r	.
.	.	.	.	.	.	8a/	8a\	.	.	8A\	.	.	8A\	.
=315	=315	=315	=315	=315	=315	=315	=315	=315	=315	=315	=315	=315	=315	=315
2D/	2.AA\	.	2D/	2D\	.	2dd/	2a\	.	2d/	2A\	.	2f/	2A\	.
4D#X/	.	.	4D#X/	4D#\	.	4cc/	4a\	.	4c/	4A\	.	4f/	4A\	.
4E/	4AA\	.	4E/	4E\	.	4ee/	4a\	.	4A/ 4c	4ryy	.	4e/	4A\	.
*	*	*	*	*	*	*v	*v	*	*	*	*	*v	*v	*
!!LO:LB:g=original
=316	=316	=316	=316	=316	=316	=316	=316	=316	=316	=316	=316	=316
4E#X/	4AA\	.	4E#X/	4E#\	.	4a\ 4cc	.	4c/	4A\	.	4A\ 4a	.
4F#X/	4AA\	.	4F#X/	4F#\	.	4a\ 4cc	.	4e/	4c\	.	4A\ 4a	.
4G/	4AA\	.	4G/	4G\	.	4a\ 4cc	.	4e/	4c\	.	4c\ 4a	.
4G#X/	4AA\	.	4G#X/	4G#\	.	4a\ 4cc	.	4e/	4c\	.	4c\ 4a	.
*	*	*	*	*	*	*	*	*v	*v	*	*	*
=317	=317	=317	=317	=317	=317	=317	=317	=317	=317	=317	=317
*	*	*	*	*	*	*^	*	*	*	*	*
4A/	4AA\	.	4A/	4A\	.	4a/	4a\	.	4A/ 4e	.	4c\ 4a	.
2A/	2AA\	.	2c\ 2e	2ryy	.	2ee/	2a\	.	2A/ 2e	.	2c^>\ 2a	.
4A/	4AA\	.	4c\ 4e	4ryy	.	4a\ 4cc	4ryy	.	4A/ 4e	.	4c\ 4a	.
*	*	*	*v	*v	*	*	*	*	*	*	*	*
=318	=318	=318	=318	=318	=318	=318	=318	=318	=318	=318	=318
4A/	4AA\	.	4c\ 4e	.	4a/	4a\	.	4A/ 4e	.	4c\ 4a	.
*	*	*	*	*	*	*	*	*	*	*rep	*
4C/	4C\	.	4c\ 4e	.	4a/	4a\	.	4A/ 4e	.	4c\ 4a	.
*	*	*	*	*	*	*	*	*	*	*Xrep	*
*	*	*	*	*	*	*	*	*	*	*rep	*
4E/	4E\	.	4c\ 4e	.	4cc/	4a\	.	4A/ 4e	.	4c\ 4a	.
*	*	*	*	*	*	*	*	*	*	*Xrep	*
*	*	*	*	*	*	*	*	*	*	*rep	*
4C/	4C\	.	4c\ 4e	.	4cc/	4a\	.	4A/ 4e	.	4c\ 4a	.
*	*	*	*	*	*	*	*	*	*	*Xrep	*
=319	=319	=319	=319	=319	=319	=319	=319	=319	=319	=319	=319
*rep	*rep	*	*	*	*rep	*rep	*	*rep	*	*rep	*
4A/	4AA\	.	4c\ 4e	.	4a/	4a\	.	4A/ 4e	.	4c\ 4a	.
4C/	4C\	.	2c\ 2e	.	4a/	4a\	.	4A/ 4e	.	4c\ 4a	.
4E/	4E\	.	.	.	4cc/	4a\	.	4A/ 4e	.	4c\ 4a	.
4C/	4C\	.	4c\ 4e	.	4cc/	4a\	.	4A/ 4e	.	4c\ 4a	.
*Xrep	*Xrep	*	*	*	*Xrep	*Xrep	*	*Xrep	*	*Xrep	*
=320	=320	=320	=320	=320	=320	=320	=320	=320	=320	=320	=320
*rep	*rep	*	*	*	*rep	*rep	*	*rep	*	*rep	*
4A/	4AA\	.	4c\ 4e	.	4a/	4a\	.	4A/ 4e	.	4c\ 4a	.
4C/	4C\	.	4c\ 4e	.	4a/	4a\	.	4A/ 4e	.	4c\ 4a	.
4E/	4E\	.	4c\ 4e	.	4cc/	4a\	.	4A/ 4e	.	4c\ 4a	.
4C/	4C\	.	4c\ 4e	.	4cc/	4a\	.	4A/ 4e	.	4c\ 4a	.
*Xrep	*Xrep	*	*	*	*Xrep	*Xrep	*	*Xrep	*	*Xrep	*
=321	=321	=321	=321	=321	=321	=321	=321	=321	=321	=321	=321
4A/	4AA\	.	4c\ 4e	.	4a/	4a\	.	4A/ 4e	.	4c\ 4a	.
4r	4ryy	.	4r	.	8.r	8.ryy	.	8.r	.	8.r	.
.	.	.	.	.	16a/	16a\	.	16A/ 16a	.	16A/ 16a	.
2r	2ryy	.	2r	.	4a/	4a\	.	4A/ 4a	.	4A/ 4a	.
.	.	.	.	.	8.r	8.ryy	.	8.r	.	8.r	.
.	.	.	.	.	16a/	16a\	.	16A/ 16a	.	16A/ 16a	.
*v	*v	*	*	*	*	*	*	*	*	*	*
=322	=322	=322	=322	=322	=322	=322	=322	=322	=322	=322
*	*	*	*	*rep	*rep	*	*	*	*	*
1r	.	1r	.	4a/	4a\	.	4A/ 4a	.	4A/ 4a	.
.	.	.	.	8.r	8.ryy	.	8.r	.	8.r	.
.	.	.	.	16a/	16a\	.	16A/ 16a	.	16A/ 16a	.
.	.	.	.	4a/	4a\	.	4A/ 4a	.	4A/ 4a	.
.	.	.	.	8.r	8.ryy	.	8.r	.	8.r	.
.	.	.	.	16a/	16a\	.	16A/ 16e	.	16c/ 16a	.
*	*	*	*	*Xrep	*Xrep	*	*	*	*	*
*	*	*	*	*v	*v	*	*	*	*	*
=323	=323	=323	=323	=323	=323	=323	=323	=323	=323
!	!LO:DY:rj	!	!LO:DY:rj	!	!LO:DY:rj	!	!LO:DY:rj	!	!
[>1AA [>1A	ff	[>1E [>1c	ff	[>1a [>1cc	ff	[<1A [>1e	ff	[>1c [>1a	ff
=324	=324	=324	=324	=324	=324	=324	=324	=324	=324
*rep	*	*rep	*	*rep	*	*rep	*	*rep	*
1AA] 1A]	.	1E] 1c]	.	1a] 1cc]	.	1A] 1e]	.	1c] 1a]	.
*Xrep	*	*Xrep	*	*Xrep	*	*Xrep	*	*Xrep	*
=325	=325	=325	=325	=325	=325	=325	=325	=325	=325
*	*	*	*	*^	*	*	*	*	*
4AA/ 4A	sff	4E/ 4c	sff	4a/	4a\	sff	4A/ 4e	sff	4c\ 4a	sff
4r	.	4r	.	4r	4ryy	.	4r	.	4r	.
2r	.	2r	.	2r	2ryy	.	2r	.	2r	.
*	*	*	*	*v	*v	*	*	*	*	*
==	==	==	==	==	==	==	==	==	==
*-	*-	*-	*-	*-	*-	*-	*-	*-	*-
!!!system-decoration: [{s1,s2}]s3[(s4,s5)]
!!!AIN: 2 cor 3 empty
!!!ENC: Krzysztof Stępień
!!!END: 2021-09-07
!!!EED: Jędrzej Mróz
!!!ESR: 2021-10-18
!!!RDF**kern: > = above
!!!RDF**kern: < = below
!!!RDF**kern: @ = marked note, color=blue
!!!RDF**kern: j = marked note, color=red
